!!!!SEGMENT: pl-wtm--1347-fp-4572_stojowski-zygmunt--caprice-oriental-op-10-no-2.krn
!!!cenid: 19xx:168
!!!COM: Stojowski, Zygmunt
!!!COM-rismID: pe41019736
!!!CDT: 1870-1946
!!!CNT: Polish
!!!OTL: Caprice Oriental Op. 10 No. 2
!!!PDT: 1903
!!!AGN: Secular; Caprice
!!!YEC: Copyright 2022 Narodowy Instytut Fryderyka Chopina (https://polishscores.org)
!!!YEM: License CC-BY-4.0 (https://creativecommons.org/licenses/by/4.0)
!!!SMS-siglum: PL-Wtm
!!!SMS-shelfmark: 1347 fp 4572
!!!SMS-variant:
!!!SMS-altvar:
!!!SMS-shelfwork: W
!!!NIFC-rismSourceID: 1001214674
!!!NIFC-rismChildID: 1001214674
!!!NIFC-islandoraID: pl-wtm:83002
!!!URL-pdf-islandora: https://repozytorium.nifc.pl/islandora/object/pl-wtm%3A83002/datastream/PDF/view
!!!URL-scan: https://polish.musicsources.pl/pl/lokalizacje/galeria/druki-muzyczne/18540/2 @EN{Scan on Polish Music Sources Website} @PL{Skany w portalu Dziedzictwo Muzyki Polskiej w otwartym dostępie}
!!!IIIF:
!!!ONB-nifc:
!!!AIN: 1 piano
!!!key: a
**kern	**fing	**kern	**fing	**dynam
*part1	*	*part1	*	*part1
*staff2	*	*staff1	*	*staff1/2
*group1	*	*group1	*	*
*ICklav	*	*ICklav	*	*
*Ipiano	*	*Ipiano	*	*
*I"[Pianoforte]	*	*I"[Pianoforte]	*	*
*	*	*I'	*	*
*clefF4	*	*clefG2	*	*
*k[]	*	*k[]	*	*
*a:	*	*a:	*	*
*M2/4	*	*M2/4	*	*
=1	=1	=1	=1	=1
!!LO:TX:a:B:t=Allegro assai.
!LO:TX:b:i:t=con [Ped]	!	!	!	!
8EL 8AA/	.	(16c/LL	1	f
.	.	16a/	4	.
8E 8AA/	.	16g/	3	.
.	.	16b/JJ	5	.
8r	.	16e/LL	1	.
.	.	16cc/	4	.
8EJ 8AA/	.	16b/	3	.
.	.	16dd/JJ	5	.
=2	=2	=2	=2	=2
8EL 8AA/	.	16a\LL	1	.
.	.	16dd\	4	.
8E 8AA/	.	16cc\	3	.
.	.	16ee\JJ	5	.
8r	.	16cc\LL	3	.
.	.	16ee\	.	.
8EJ 8AA/	.	16cc\	.	.
.	.	16ee\JJ	.	.
=3	=3	=3	=3	=3
8EL 8AA/	.	16dd\LL	4	.
.	.	16ee\	.	.
8E 8AA/	.	16cc\	.	.
.	.	16ee\JJ	.	.
8r	.	16b\LL	.	>
.	.	16ee\	.	.
8EJ 8AA/	.	16g\	.	.
.	.	16ee\JJ	.	.
=4	=4	=4	=4	=4
8EL 8AA/	.	16a\LL	1	.
.	.	16ee\	.	.
8E 8AA/	.	16b\	2	.
.	.	16ee\JJ	.	.
8r	.	16cc\LL	3	.
.	.	16ee\	.	.
8EJ 8AA/	.	16a\	.	.
.	.	16ee\JJ	.	.
=5	=5	=5	=5	=5
8EL 8AA/	.	16dd\LL	4	.
.	.	16ee\	.	.
8E 8AA/	.	16cc\	.	.
.	.	16ee\JJ	.	] p
8r	.	16b\LL	.	.
.	.	16ee\	.	.
8EJ 8AA/	.	16g\	.	.
.	.	16ee\JJ	.	.
!!LO:LB:g=original
=6	=6	=6	=6	=6
8EL 8AA/	.	16a\LL	.	.
.	.	16ee\	.	.
8E 8AA/	.	16b\	.	.
.	.	16ee\JJ	.	.
8r	.	16cc\LL	.	.
.	.	16ee\	.	.
8EJ 8AA/	.	16a\	.	.
.	.	16ee\JJ	.	.
=7	=7	=7	=7	=7
8EL 8AA/	.	16dd\LL	.	.
.	.	16ee\	.	.
8E 8AA/	.	16cc\	.	.
.	.	16ee\JJ	.	.
8r	.	16b\LL	.	<
.	.	16ee\	.	.
8EJ 8AA/	.	16dd\	.	.
.	.	16ee\JJ	.	.
=8	=8	=8	=8	=8
8EL 8AA/	.	16cc\LL	.	.
.	.	16ee\	.	.
8E 8AA/	.	16b\	.	.
.	.	16ee\JJ	.	.
8r	.	16cc\LL	.	.
.	.	16ee\	.	.
8EJ 8AA/	.	16a\	.	.
.	.	16ee\JJ	.	.
=9	=9	=9	=9	=9
8EL 8AA/	.	16b\LL	.	.
.	.	16ee\	.	[
8E 8AA/	.	16a\	.	.
.	.	16ee\JJ	.	.
8r	.	16g\LL	.	.
.	.	16ee\	.	.
8EJ 8AA/	.	16b\	.	.
.	.	16ee\JJ	.	.
=10	=10	=10	=10	=10
8EL 8AA/	.	[2a^/)	.	f
8E 8AA/	.	.	.	.
8r	.	.	.	.
8EJ 8AA/	.	.	.	.
!!LO:LB:g=original
=11	=11	=11	=11	=11
8EL 8AA/	.	2a/_	.	.
8E 8AA/	.	.	.	.
8r	.	.	.	.
8EJ 8AA/	.	.	.	.
=12	=12	=12	=12	=12
8EL 8AA/	.	2a/_	.	>
8E 8AA/	.	.	.	.
8r	.	.	.	.
8EJ 8AA/	.	.	.	.
=13	=13	=13	=13	=13
8EL 8AA/	.	2a/]	.	.
8E 8AA/	.	.	.	.
8r	.	.	.	.
8EJ 8AA/	.	.	.	.
=14	=14	=14	=14	=14
8EL 8AA/	.	(16c/LL	.	p
.	.	16a/	.	.
8E 8AA/	.	16g/	.	.
.	.	16b/JJ	.	.
8r	.	16e/LL	.	.
.	.	16cc/	.	.
8EJ 8AA/	.	16b/	.	.
.	.	16dd/JJ	.	.
=15	=15	=15	=15	=15
8EL 8AA/	.	16a\LL	.	.
.	.	16dd\	.	.
8E 8AA/	.	16cc\	.	.
.	.	16ee\JJ	.	.
8r	.	16cc\LL	.	.
.	.	16ee\	.	.
8EJ 8AA/	.	16cc\	.	.
.	.	16ee\JJ	.	.
!!LO:LB:g=original
=16	=16	=16	=16	=16
8EL 8AA/	.	16dd\LL	.	.
.	.	16ee\	.	.
8E 8AA/	.	16cc\	.	.
.	.	16ee\JJ	.	.
8r	.	16b\LL	.	.
.	.	16ee\	.	<
8EJ 8AA/	.	16g\	.	.
.	.	16ee\JJ	.	.
=17	=17	=17	=17	=17
8EL 8AA/	.	16a\LL	.	.
.	.	16ee\	.	.
8E 8AA/	.	16b\	.	.
.	.	16ee\JJ	.	.
8r	.	16cc\LL	.	.
.	.	16ee\	.	.
8EJ 8AA/	.	16a\	.	.
.	.	16ee\JJ	.	.
=18	=18	=18	=18	=18
8EL 8AA/	.	16dd\LL	.	.
.	.	16ee\	.	.
8E 8AA/	.	16cc\	.	.
.	.	16ee\JJ	.	.
8r	.	16b\LL	.	.
.	.	16ee\	.	.
8EJ 8AA/	.	16g\	.	.
.	.	16ee\JJ	.	[[
=19	=19	=19	=19	=19
8EL 8AA/	.	16a\LL	.	.
.	.	16ee\	.	.
8E 8AA/	.	16b\	.	.
.	.	16ee\JJ	.	.
8r	.	16cc\LL	.	.
.	.	16ee\	.	.
8EJ 8AA/	.	16a\	.	.
.	.	16ee\JJ	.	.
=20	=20	=20	=20	=20
8EL 8AA/	.	16dd\LL	.	.
.	.	16ee\	.	.
8E 8AA/	.	16cc\	.	.
.	.	16ee\JJ	.	.
8r	.	16b\LL	.	>
.	.	16ee\	.	.
8EJ 8AA/	.	16dd\	.	.
.	.	16ee\JJ	.	.
!!LO:LB:g=original
=21	=21	=21	=21	=21
8EL 8AA/	.	16cc\LL	.	.
.	.	16ee\	.	.
8E 8AA/	.	16b\	.	.
.	.	16ee\JJ	.	.
8r	.	16cc\LL	.	.
.	.	16ee\	.	.
8EJ 8AA/	.	16a\	.	.
.	.	16ee\JJ	.	]]
=22	=22	=22	=22	=22
8EL 8AA/	.	16b\LL	.	.
.	.	16ee\	.	.
8E 8AA/	.	16a\	.	.
.	.	16ee\JJ	.	.
8r	.	16g\LL	.	.
.	.	16ee\	.	.
8EJ 8AA/	.	16b\	.	.
.	.	16ee\JJ	.	.
=23	=23	=23	=23	=23
8EL 8AA/	.	[2a/)	.	p
8E 8AA/	.	.	.	.
8r	.	.	.	.
8EJ 8AA/	.	.	.	.
=24	=24	=24	=24	=24
8EL 8AA/	.	2a/_	.	.
8E 8AA/	.	.	.	.
8r	.	.	.	.
8EJ 8AA/	.	.	.	.
=25	=25	=25	=25	=25
8EL 8AA/	.	2a/_	.	.
8E 8AA/	.	.	.	.
8r	.	.	.	.
8EJ 8AA/	.	.	.	.
=26	=26	=26	=26	=26
8EL 8AA/	.	2a/]	.	.
8E 8AA/	.	.	.	.
8r	.	.	.	.
8EJ 8AA/	.	.	.	.
!!LO:PB:g=original
=27	=27	=27	=27	=27
*	*below	*	*	*
8CL 8FF^>/	2 5	(16cc^\LL	2	.
.	.	16ff\	5	.
8C 8FF/	.	16b-X\	1	mf
.	.	16ff\JJ	.	.
8r	.	16a-X\LL	1	>
.	.	16ff\	.	.
8CJ 8FF/	.	16cc\	2	.
.	.	16ff\JJ)	.	.
.	.	.	.	]
=28	=28	=28	=28	=28
8EL 8AA/	1 3	(16cc\LL	2	p
.	.	16ee\	4	.
8E 8AA/	.	16bn\	1	.
.	.	16ee\JJ	.	.
8r	.	4an/)	.	.
8EJ 8AA/	.	.	.	.
=29	=29	=29	=29	=29
8CL 8FF^>/	.	(16cc^\LL	2	.
.	.	16ff\	5	.
8C 8FF/	.	16b-X\	1	.
.	.	16ff\JJ	.	.
8r	.	16a-X\LL	.	.
.	.	16ff\	.	.
8CJ 8FF/	.	16cc\	.	.
.	.	16ff\JJ)	.	.
=30	=30	=30	=30	=30
8EL 8AA/	.	(16cc\LL	.	.
.	.	16ee\	.	.
8E 8AA/	.	16bn\	.	.
.	.	16ee\JJ	.	.
8r	.	4an/)	.	.
8EJ 8AA/	.	.	.	.
!!LO:LB:g=original
=31	=31	=31	=31	=31
8CL 8FF/	.	(16cc\LL	.	.
.	.	16ff\	.	.
8C 8FF/	.	16b-X\	.	.
.	.	16ff\JJ	.	.
8r	.	16a-X\LL	.	<
.	.	16ff\	.	.
8CJ 8FF/	.	16cc\	.	.
.	.	16ff\JJ)	.	.
.	.	.	.	[
=32	=32	=32	=32	=32
8GGL 8CC/	2 5	(16ee\LL	3	.
.	.	16gg\	.	.
8GG 8CC/	.	16dd\	2	.
.	.	16gg\JJ	.	.
8rD	.	4cc\)	1	.
8GGJ 8CC/	.	.	.	.
=33	=33	=33	=33	=33
8CL 8FF/	1 5	(16cc\LL	.	.
.	.	16ff\	.	.
8C 8FF/	.	16b-X\	.	.
.	.	16ff\JJ	.	.
8r	.	16a-X\LL	.	.
.	.	16ff\	.	.
8CJ 8FF/	.	16cc\	.	.
.	.	16ff\JJ)	.	.
=34	=34	=34	=34	=34
8GGL 8CC/	.	(16ee\LL	.	.
.	.	16gg\	.	.
8GG 8CC/	.	16dd\	.	.
.	.	16gg\JJ	.	.
8rD	.	4cc\)	.	.
8GGJ 8CC/	.	.	.	.
!!LO:LB:g=original
=35	=35	=35	=35	=35
4.BBB^>/	.	(16ff\LL	2	mf
.	.	16aa-X\	4	.
.	.	16ee-X\	1	.
.	.	16aa-\JJ	4	.
.	.	4dd-X\)	1	.
8d-X 8A-X 8F\	.	.	.	.
=36	=36	=36	=36	=36
8GL 8C\	.	(16een\LL	3	p
.	.	16gg\	5	.
8G 8C\	.	16ddn\	2	.
.	.	16gg\JJ	.	.
8r	.	8cc\)	1	.
8GJ 8C\	.	8r	.	.
=37	=37	=37	=37	=37
4.BBB/	.	(16ff\LL	2	mf
.	.	16aa-X\	4	.
.	.	16ee-X\	.	.
.	.	16aa-\JJ	.	.
.	.	4dd-X\)	.	.
8d-X 8A-X 8F\	.	.	.	.
=38	=38	=38	=38	=38
8GL 8C\	.	(16een\LL	3	p
.	.	16gg\	5	.
8G 8C\	.	16ddn\	2	.
.	.	16gg\JJ	.	.
8r	.	8cc\)	.	.
8GJ 8C\	.	8r	.	.
=39	=39	=39	=39	=39
4.BB/	.	(16ff\LL	2	.
.	.	16aa-X\	.	.
.	.	16ee-X\	1	.
.	.	16aa-\JJ	.	.
.	.	8dd-X\)	.	.
8d-X 8A-X 8F\	.	8r	.	.
!!LO:LB:g=original
=40	=40	=40	=40	=40
4.BB/	.	(16ff\LL	2	.
.	.	16aa-X\	.	.
.	.	16ee-X\	.	.
.	.	16aa-\JJ	.	.
.	.	8dd-X^\)	.	.
8d-X 8A-X 8F\	.	8r	.	.
=41	=41	=41	=41	=41
4.AAn/	.	(16ff\LL	3	.
.	.	16aan\	.	.
.	.	16een\	.	.
.	.	16aa\JJ	.	.
!	!	!	!	!LO:HP:t=poco a poco cresc.
.	.	8ddn^\)	.	<
8dn 8An 8F\	.	8r	.	.
=42	=42	=42	=42	=42
4.AA/	.	(16ff\LL	.	.
.	.	16aa\	.	.
.	.	16ee\	.	.
.	.	16aa\JJ	.	.
.	.	8dd^\)	.	.
8d 8A 8F\	.	8r	.	.
=43	=43	=43	=43	=43
4.GG#X/	.	(16ff\LL	3	.
.	.	16bb\	.	.
.	.	16ee\	2	.
.	.	16bb\JJ	.	.
.	.	16dd\LL	1	.
.	.	16bb\	.	.
8d 8B 8F\	.	16b\	1	.
.	.	16bb\JJ	.	.
=44	=44	=44	=44	=44
8dL 8B 8F/	.	16ff\LL	3	.
.	.	16bb\	.	.
8d 8B 8F/	.	16ee\	.	.
.	.	16bb\JJ	.	.
8r	.	16dd\LL	.	.
.	.	16bb\	.	.
8GG#XJ 8GGG#X/	.	16b\	.	.
.	.	16bb\JJ	.	.
!!LO:LB:g=original
=45	=45	=45	=45	=45
8GGnL 8GGGn\	.	16ccc\LL	3	f
.	.	16eee\	5	.
8e 8A 8E\	.	16bb\	2	.
.	.	16ccc\JJ	3	.
8rD	.	16aa\LL	1	.
.	.	16ccc\	5	.
8eJ 8A 8E\	.	16ff\	2	.
.	.	16aa\JJ	3	.
=46	=46	=46	=46	=46
8eL 8A 8E\	.	16ee\LL	1	.
.	.	16aa\	5	.
8e 8A 8E\	.	16dd\	2	>
.	.	16ee\JJ	3	.
8rD	.	16cc\LL	1	.
.	.	16ee\	5	.
8eJ 8A 8E\	.	16b\	2	.
.	.	16cc\JJ	3	.
=47	=47	=47	=47	=47
8eL 8A 8E/	.	16a/LL	1	.
.	.	16cc/	5	.
8GG 8GGG/	.	16f/	2	.
.	.	16a/JJ	3	.
8rD	.	16e/LL	1	.
.	.	16a/	5	.
8GGJ 8GGG/	.	16d/	2	.
.	.	16e/JJ	3	.
=48	=48	=48	=48	=48
8GGL 8GGG\	.	16c/LL	1	.
.	.	16e/	5	.
8GG 8GGG\	.	16B</	2	.
.	.	16c</JJ	3	.
8r	.	16A</LL	1	.
.	.	16c</	5	.
8GGJ 8GGG\	.	16F</	2	.
.	.	16A</JJ	3	.
=49	=49	=49	=49	=49
!LO:TX:b:i:t=molto stacc.	!	!	!	!
8GGL 8GGG\	.	16E</LL	1	p
.	.	16e/	5	.
8CC\	.	16B</	2	.
.	.	16c</JJ	.	.
8GG 8GGG\	.	16A</LL	1	.
.	.	16c</	5	.
8CC\J	.	16F</	2	.
.	.	16A</JJ	3	.
!!LO:PB:g=original
=50	=50	=50	=50	=50
!	!	!LO:TX:t=P:problem:mixed beam	!	!
8GGL 8GGG\	.	16E</LL	.	.
.	.	16e\	.	.
8CC\	.	16B</	2	.
.	.	16c</JJ	3	.
8GG 8GGG\	.	16A</LL	1	.
.	.	16c</	5	.
8CC\J	.	16F</	2	.
.	.	16A</JJ	3	.
=51	=51	=51	=51	=51
8GGL 8GGG\	.	16E</LL	.	.
.	.	16e/	.	.
8CC\J	.	16B/	.	.
.	.	16c/JJ	.	.
8GGL 8GGG/	.	16A/LL	.	<
.	.	16e/	.	.
8CC/J	.	16B/	.	.
.	.	16c/JJ	.	.
=52	=52	=52	=52	=52
8GGL 8GGG/	.	16A/LL	.	.
.	.	16e/	.	.
8CC/	.	16B/	.	.
.	.	16c/JJ	.	.
8GG 8GGG/	.	16A/LL	.	.
.	.	16e/	.	.
8CC/J	.	16B/	.	.
.	.	16c/JJ)	.	.
=53	=53	=53	=53	=53
4FF#X 4FFF#X/	.	(16A/LL	.	.
.	.	16e/	.	.
.	.	16B/	.	.
.	.	16c/JJ	.	.
4r	.	16A/LL	.	<
.	.	16a/	.	.
.	.	16d/	.	.
.	.	16e/JJ	.	.
!!LO:LB:g=original
=54	=54	=54	=54	=54
4A: 4E: 4C: 4FF#X:/	.	16c/LL	.	.
.	.	16cc/	.	.
.	.	16g/	.	.
.	.	16a/JJ	.	.
4r	.	16e/LL	.	.
.	.	16ee/	.	.
.	.	16b/	.	.
.	.	16cc/JJ	.	.
=55	=55	=55	=55	=55
4FF#X 4FFF#X/	.	16a\LL	.	.
.	.	16aa\	.	.
.	.	16dd\	.	.
.	.	16ee\JJ	.	.
4r	.	16cc\LL	.	.
.	.	16ccc\	.	.
.	.	16gg\	.	.
.	.	16aa\JJ	.	[
=56	=56	=56	=56	=56
*	*	*8va	*	*
[2a: [2e: [>2c: 2F#X:\	.	16ee/LL	.	sf
.	.	16eee/	.	.
.	.	16bb/	.	.
.	.	16ccc/JJ	.	.
.	.	16aa\LL	.	.
.	.	16aaa\	.	.
.	.	16ddd\	.	.
.	.	16eee\JJ	.	.
=57	=57	=57	=57	=57
4a] 4e] 4c\]	.	16ccc\LL	.	.
.	.	16cccc\	.	.
.	.	16ggg\	.	.
.	.	16aaa\JJ	.	.
4FF#X 4FFF#X^>/	.	16eee\LL	.	.
.	.	16eeee\	.	.
.	.	16bbb\	.	.
.	.	16cccc\JJ	.	.
!!LO:LB:g=original
=58	=58	=58	=58	=58
4a 4e 4c^\	4	16aaa\LL	.	.
.	.	16eeee\	.	ff
.	.	16bbb\	.	.
.	.	16cccc\JJ	.	.
4FF#X 4FFF#X^>/	.	16aaa\LL	.	.
.	.	16eeee\	.	.
.	.	16bbb\	.	.
.	.	16cccc\JJ	.	.
=59	=59	=59	=59	=59
4a 4e 4c^\	.	16aaa\LL	.	.
.	.	16eeee\	.	.
.	.	16bbb\	.	.
.	.	16cccc\JJ	.	.
4FF#X 4FFF#X^>/	.	16aaa\LL	.	.
.	.	16eeee\	.	.
.	.	16bbb\	.	.
.	.	16cccc\JJ	.	.
=60	=60	=60	=60	=60
4a 4e 4c\	.	16aaa\LL	.	.
.	.	16eeee\	.	.
.	.	16bbb\	.	.
.	.	16cccc\JJ	.	.
4FF#X 4FFF#X^>/	.	16aaa\LL	.	.
.	.	16eeee\	.	.
.	.	16bbb\	.	.
.	.	16cccc\JJ)	.	.
=61	=61	=61	=61	=61
[2BB [2FF#X [2BBB/	.	(16aaa\LL	1	sf
.	.	16dddd#X\	5	.
.	.	16bbb\	2	.
.	.	16cccc\JJ	3	.
.	.	16aaa\LL	1	.
.	.	16cccc\	5	.
.	.	16ggg\	2	.
.	.	16aaa\JJ)	.	.
=62	=62	=62	=62	=62
*^	*	*	*	*
*8va	*X8va	*	*	*	*
!LO:TX:a:i:t=m.g.	!	!	!	!	!
16fff#X>\LL	4BB] 4FF#] 4BBB/]	2	16ryy	.	.
16ryy	.	.	16aaa/LL	4	.
16eee>\JJ	.	3	16ryy	.	.
16ryy	.	.	16fff#y/JJ	2	.
16ddd#X>\LL	4r	2	16ryy	.	.
16ryy	.	.	16fff#/LL	4	.
16dddn>\JJ	.	3	16ryy	.	.
16ryy	.	.	16ddd#X/JJ	2	.
*X8va	*X8va	*	*	*	*
*v	*v	*	*	*	*
*	*	*X8va	*	*
!!LO:LB:g=original
=63	=63	=63	=63	=63
!	!	!LO:TX:b:i:t=m.g.	!	!
16ccc>\LL	2	16ryy	.	.
16ryy	.	16ddd#X/LL	4	.
16bb>\JJ	3	16ryy	.	.
16ryy	.	16ccc/JJ	2	.
16aa>\LL	2	16ryy	.	.
16ryy	.	16ccc/LL	4	.
16gg>\JJ	3	16ryy	.	.
16ryy	.	16aa/JJ	2	.
=64	=64	=64	=64	=64
16ff#X>\LL	.	16ryy	.	.
16ryy	.	16aa/LL	.	.
16ee>\JJ	.	16ryy	.	.
16ryy	.	16ff#X/JJ	.	.
16dd#X>\LL	.	16ryy	.	.
16ryy	.	16ff#/LL	.	.
16ddn>\JJ	.	16ryy	.	.
16ryy	.	16dd#X/JJ	.	.
=65	=65	=65	=65	=65
16cc>\LL	.	16ryy	.	.
16ryy	.	16dd#X/LL	.	.
16b>\JJ	.	16ryy	.	.
16ryy	.	16cc/JJ	.	.
!	!	!	!	!LO:HP:a
16a>\LL	.	16ryy	.	<
16ryy	.	16cc/LL	.	.
16g>\JJ	.	16ryy	.	.
16ryy	.	16a/JJ	.	.
=66	=66	=66	=66	=66
16f#X>\LL	.	16ryy	.	.
16ryy	.	16a/LL	.	.
16e>\JJ	.	16ryy	.	.
16ryy	.	16f#X/JJ	.	.
16d#X>\LL	.	16ryy	.	.
16ryy	.	16f#/LL	.	.
16dn>\JJ	.	16ryy	.	.
16ryy	.	16d#X/JJ	.	.
=67	=67	=67	=67	=67
16c>\LL	.	16ryy	.	.
16ryy	.	16d#X/LL	.	.
16B\JJ	.	16ryy	.	.
16ryy	.	16c</JJ	.	.
16A\LL	.	16ryy	.	.
16ryy	.	16c</LL	.	.
16G\JJ	.	16ryy	.	.
16ryy	.	16A</JJ	.	[[
!!LO:LB:g=original
=68	=68	=68	=68	=68
16F#X\LL	.	16ryy	.	.
16ryy	.	16A</LL	.	.
16E\JJ	.	16ryy	.	.
16ryy	.	16F#X</JJ	.	.
16D#X\LL	.	16ryy	.	.
16ryy	.	16F#</LL	.	.
16Dn\JJ	.	16ryy	.	.
16ryy	.	16D#X</JJ	.	.
=69	=69	=69	=69	=69
16C\LL	3	16ryy	.	ff
16ryy	.	16D#X</LL	2	p
16Dn\JJ	2	16ryy	.	.
16ryy	.	16F#X</JJ	4	.
16C\LL	.	16ryy	.	<
16ryy	.	16D#X</LL	.	.
16Dn\JJ	.	16ryy	.	.
16ryy	.	16F#X</JJ	.	.
=70	=70	=70	=70	=70
16C\LL	.	16ryy	.	.
16ryy	.	16D#X</LL	.	.
16Dn\JJ	.	16ryy	.	.
16ryy	.	16F#X</JJ	.	.
16C\LL	.	16ryy	.	.
16ryy	.	16D#X</LL	.	.
16Dn\JJ	.	16ryy	.	.
16ryy	.	16F#X</JJ	.	[[
=71	=71	=71	=71	=71
16C\LL	.	16ryy	.	.
16ryy	.	16D#X</LL	.	.
16Dn\JJ	.	16ryy	.	.
16ryy	.	16F#X</JJ	.	.
16C\LL	.	16ryy	.	>
16ryy	.	16D#X</LL	.	.
16Dn\JJ	.	16ryy	.	.
16ryy	.	16F#X</JJ	.	.
=72	=72	=72	=72	=72
16C\LL	.	16ryy	.	.
16ryy	.	16D#X</LL	.	.
16Dn\JJ	.	16ryy	.	.
16ryy	.	16F#X</JJ	.	.
16C\LL	.	16ryy	.	.
16ryy	.	16D#X</LL	.	.
16Dn\JJ	.	16ryy	.	.
16ryy	.	16F#X</JJ	.	]]
*	*	*clefF4	*	*
!!LO:PB:g=original
=73	=73	=73	=73	=73
8EEL 8EEE/	.	(16C\LL	.	fp
.	.	16A\	.	.
8EE 8EEE/	.	16D\	.	.
.	.	16E\JJ	.	.
8rGG	.	16C\LL	.	.
.	.	16A\	.	.
8EEJ 8EEE/	.	16D\	.	.
.	.	16E\JJ	.	.
=74	=74	=74	=74	=74
8EEL 8EEE/	.	16C\LL	.	<
.	.	16A\	.	.
8EE 8EEE/	.	16D\	.	.
.	.	16E\JJ	.	.
8rGG	.	16C\LL	.	.
.	.	16A\	.	.
8EEJ 8EEE/	.	16D\	.	.
.	.	16E\JJ	.	.
=75	=75	=75	=75	=75
8EEL 8EEE/	.	16C\LL	.	.
.	.	16A\	.	.
8EE 8EEE/	.	16D\	.	.
.	.	16E\JJ	.	[
8rGG	.	16C\LL	.	.
.	.	16A\	.	.
8EEJ 8EEE/	.	16D\	.	.
.	.	16E\JJ	.	.
=76	=76	=76	=76	=76
8EEL 8EEE/	.	16C\LL	.	>
.	.	16A\	.	.
8EE 8EEE/	.	16D\	.	.
.	.	16E\JJ	.	.
8rGG	.	16C\LL	.	.
.	.	16A\	.	.
8EEJ 8EEE/	.	16D\	.	.
.	.	16E\JJ)	.	]
=77	=77	=77	=77	=77
8EEL 8EEE/	.	(16C\LL	.	p
.	.	16A\	.	<
8EE 8EEE/	.	16D\	.	.
.	.	16E\JJ	.	.
8rGG	.	16E\LL	.	.
.	.	16c\	.	.
8EEJ 8EEE/	.	16F\	.	.
.	.	16A\JJ	.	.
*	*	*clefG2	*	*
!!LO:LB:g=original
=78	=78	=78	=78	=78
8EEL 8EEE/	.	16G/LL	.	.
.	.	16e/	.	.
8EE 8EEE/	.	16A/	.	.
.	.	16c/JJ	.	.
.	.	.	.	[
8rGG	.	16B/LL	.	.
.	.	16g/	.	.
8EEJ 8EEE/	.	16c/	.	.
.	.	16e/JJ)	.	.
=79	=79	=79	=79	=79
8EEL 8EEE/	.	(16c/LL	.	.
.	.	16a/	.	.
8EE 8EEE/	.	16d/	.	.
.	.	16e/JJ	.	.
8rGG	.	16c/LL	.	>
.	.	16a/	.	.
8EEJ 8EEE/	.	16d/	.	.
.	.	16e/JJ	.	.
=80	=80	=80	=80	=80
8EEL 8EEE/	.	16c/LL	.	.
.	.	16a/	.	.
8EE 8EEE/	.	16d/	.	.
.	.	16e/JJ	.	.
8rGG	.	16c/LL	.	.
.	.	16a/	.	.
8EEJ 8EEE/	.	16d/	.	.
.	.	16e/JJ)	.	]
=81	=81	=81	=81	=81
8EEL 8EEE/	.	16B/LL	.	.
.	.	16g/	.	.
8EE 8EEE/	.	16d/	.	.
.	.	16e/JJ	.	.
!	!	!LO:TX:b:i:t=poco cal[a]ndo	!	!
8rGG	.	16B/LL	.	.
.	.	16g/	.	.
8EEJ 8EEE/	.	16d/	.	.
.	.	16e/JJ	.	.
=82	=82	=82	=82	=82
8EEL 8EEE/	.	16B/LL	.	.
.	.	16g/	.	.
8EE 8EEE/	.	16d/	.	.
.	.	16e/JJ	.	.
8rGG	.	16B/LL	.	.
.	.	16g/	.	.
8EEJ 8EEE/	.	16d/	.	.
.	.	16e/JJ	.	.
!!LO:LB:g=original
=83	=83	=83	=83	=83
!	!	!	!	!LO:DY:t=%s a tempo
8EEL 8AAA/	.	(16c/LL	.	p
.	.	16a/	.	.
8EE 8AAA/	.	16g/	.	.
.	.	16b/JJ	.	.
8rGG	.	16e/LL	.	.
.	.	16cc/	.	.
8EEJ 8AAA/	.	16b/	.	.
.	.	16dd/JJ	.	.
=84	=84	=84	=84	=84
8EEL 8AAA/	.	16a\LL	.	.
.	.	16dd\	.	.
8EE 8AAA/	.	16cc\	.	.
.	.	16ee\JJ	.	.
8rGG	.	16cc\LL	.	.
.	.	16ee\	.	.
8EEJ 8AAA/	.	16cc\	.	.
.	.	16ee\JJ	.	.
=85	=85	=85	=85	=85
8EEL 8AAA/	.	16dd\LL	.	.
.	.	16ee\	.	.
8EE 8AAA/	.	16cc\	.	.
.	.	16ee\JJ	.	.
8rGG	.	16b\LL	.	<
.	.	16ee\	.	.
8EEJ 8AAA/	.	16g\	.	.
.	.	16ee\JJ	.	.
=86	=86	=86	=86	=86
8EEL 8AAA/	.	16a\LL	.	.
.	.	16ee\	.	.
8EE 8AAA/	.	16b\	.	.
.	.	16ee\JJ	.	.
8rGG	.	16cc\LL	.	.
.	.	16ee\	.	.
8EEJ 8AAA/	.	16a\	.	.
.	.	16ee\JJ	.	.
=87	=87	=87	=87	=87
8EEL 8AAA/	.	16dd\LL	.	.
.	.	16ee\	.	.
8EE 8AAA/	.	16cc\	.	.
.	.	16ee\JJ	.	.
8rGG	.	16b\LL	.	.
.	.	16ee\	.	.
8EEJ 8AAA/	.	16g\	.	.
.	.	16ee\JJ	.	[[
!!LO:LB:g=original
=88	=88	=88	=88	=88
8EEL 8AAA/	.	16a\LL	.	.
.	.	16ee\	.	.
8EE 8AAA/	.	16b\	.	.
.	.	16ee\JJ	.	.
8rGG	.	16cc\LL	.	.
.	.	16ee\	.	.
8EEJ 8AAA/	.	16a\	.	.
.	.	16ee\JJ	.	.
=89	=89	=89	=89	=89
8EEL 8AAA/	.	16dd\LL	.	.
.	.	16ee\	.	.
8EE 8AAA/	.	16cc\	.	.
.	.	16ee\JJ	.	.
8rGG	.	16b\LL	.	.
.	.	16ee\	.	.
8EEJ 8AAA/	.	16dd\	.	.
.	.	16ee\JJ	.	.
=90	=90	=90	=90	=90
8EEL 8AAA/	.	16cc\LL	.	>
.	.	16ee\	.	.
8EE 8AAA/	.	16b\	.	.
.	.	16ee\JJ	.	.
8rGG	.	16cc\LL	.	.
.	.	16ee\	.	.
8EEJ 8AAA/	.	16a\	.	.
.	.	16ee\JJ	.	.
=91	=91	=91	=91	=91
8EEL 8AAA/	.	16b\LL	.	.
.	.	16ee\	.	.
8EE 8AAA/	.	16a\	.	.
.	.	16ee\JJ	.	]
8rGG	.	16g\LL	.	.
.	.	16ee\	.	.
8EEJ 8AAA/	.	16b\	.	.
.	.	16ee\JJ	.	.
=92	=92	=92	=92	=92
8EEL 8AAA/	.	[2a/)	.	.
8EE 8AAA/	.	.	.	.
8rGG	.	.	.	.
8EEJ 8AAA/	.	.	.	.
=93	=93	=93	=93	=93
8EEL 8AAA/	.	2a/_	.	.
8EE 8AAA/	.	.	.	.
8rGG	.	.	.	.
8EEJ 8AAA/	.	.	.	.
!!LO:LB:g=original
=94	=94	=94	=94	=94
8EEL 8AAA/	.	4a/]	.	.
8EE 8AAA/	.	.	.	.
!!LO:TX:a:i:t=poco-a-poco-calando:dur=9e:ext=s:problem:text with extention lines
8rGG	.	4r	.	.
8EEJ 8AAA/	.	.	.	.
=95	=95	=95	=95	=95
8EEL 8AAA/	.	(16B/LL	.	.
.	.	16e/	.	.
8EE 8AAA/	.	16A/	.	.
.	.	16e/JJ	.	.
8rGG	.	16G/LL	.	.
.	.	16e/	.	.
8EEJ 8AAA/	.	16B/	.	.
.	.	16e/JJ)	.	.
=96	=96	=96	=96	=96
8EEL 8AAA/	.	[2A/	.	.
8EE 8AAA/	.	.	.	.
8rGG	.	.	.	.
8EEJ 8AAA/	.	.	.	.
=97	=97	=97	=97	=97
8EEL 8AAA/	.	2A/_	.	>
8EE 8AAA/	.	.	.	.
8rGG	.	.	.	.
8EEJ 8AAA/	.	.	.	.
=98	=98	=98	=98	=98
8EEL 8AAA/	.	4A/]	.	.
.	.	.	.	]
8EE 8AAA/	.	.	.	.
8rGG	.	4r	.	.
8EEJ 8AAA/	.	.	.	.
=99||	=99||	=99||	=99||	=99||
*k[f#c#g#]	*	*k[f#c#g#]	*	*
*8ba	*	*	*	*
!!LO:TX:a:B:t=Maestoso.
4AAA: 4AAAA^>:/	.	4r	.	ff
*X8ba	*	*	*	*
4e 4A 4E^\	.	4eee 4aa 4ee^\	.	.
!!LO:LB:g=original
=100	=100	=100	=100	=100
4e 4A 4E^\	.	4eee 4aa 4ee^\	.	.
4e 4A 4E^\	.	4eee 4aa 4ee^\	.	.
=101	=101	=101	=101	=101
*Xbrackettup	*	*Xbrackettup	*	*
!!LO:TX:a:B:t=Tempo I.
4ryy	.	(36dd#X/LLL	4	p
.	.	36ee/	.	.
.	.	36dd#/	.	.
.	.	36cc#/	.	.
.	.	36b/	.	.
.	.	36a/JJJ	.	.
!LO:TX:a:i:t=m.g.	!	!	!	!
.	.	36g#\LLL	.	.
.	.	36f#\	.	.
.	.	36d#X\JJJ)	.	.
[4B\	.	4r	.	.
=102	=102	=102	=102	=102
2B;\]	.	2r;	.	.
=103	=103	=103	=103	=103
*8ba	*	*	*	*
!!LO:TX:a:B:t=Maestoso.
!	!	!	!	!LO:DY:t=molto %s
4AAA 4AAAA/	.	4r	.	p
*X8ba	*	*	*	*
4e 4A 4E~\	.	4eee 4aa 4ee~\	.	.
=104	=104	=104	=104	=104
4e 4A 4E~\	.	4eee 4aa 4ee~\	.	.
4e 4A 4E~\	.	4eee 4aa 4ee~\	.	.
=105	=105	=105	=105	=105
!!LO:TX:a:B:t=Tempo I.
4ryy	.	(36dd#X/LLL	.	.
.	.	36ee/	.	.
.	.	36dd#/	.	.
.	.	36cc#/	.	.
.	.	36b/	.	.
.	.	36a/JJJ	.	.
!LO:TX:a:i:t=m.g.	!	!	!	!
.	.	36g#\LLL	.	.
.	.	36f#\	.	.
.	.	36d#X\JJJ)	.	.
[4B\	.	4r	.	.
=106	=106	=106	=106	=106
2B;\]	.	2r;	.	.
!!LO:PB:g=original
=107	=107	=107	=107	=107
!!LO:TX:a:i:t=poco meno vivace, capriccioso
(8qD#X/	.	.	.	.
!LO:S:s=1:note:problem=note-level slur	!	!	!	!
8E) 8AA'^/	.	(16ee^>/LL	.	p
.	.	16e/)	1	.
8r	.	16e/	3	.
.	.	16e/JJ	2	.
!LO:TX:a:i:t=m.g.	!	!	!	!
8d#X>'<\	2	8rb	.	.
8r	.	8e'/	3	.
=108	=108	=108	=108	=108
8d#X>'<\	2	8rb	.	.
.	.	(8qdn/	3	.
8r	.	8cn'^/)	2	.
4B^\	4	8r	.	.
.	.	8ee 8dd 8g# 8e'/	.	.
=109	=109	=109	=109	=109
(8qD#X/	.	.	.	.
!LO:S:s=1:note:problem=note-level slur	!	!	!	!
8E) 8AA'/	.	16ee/LL	.	.
.	.	16e/	.	.
8r	.	16e/	.	.
.	.	16e/JJ	.	.
8d#X>\	.	8rb	.	.
8r	.	8e/	.	.
=110	=110	=110	=110	=110
8d#X>\	.	8rb	.	.
.	.	(8qdn/	.	.
8r	.	8cn/)	.	.
4B\	.	8r	.	.
.	.	8ee 8dd 8g# 8e/	.	.
=111	=111	=111	=111	=111
(8qD#X/	.	.	.	.
!LO:S:s=1:note:problem=note-level slur	!	!	!	!
8E) 8AA/	.	(16aa^>/LL	.	.
.	.	16a/)	.	.
8r	.	16a/	.	.
.	.	16a/JJ	.	.
8g#>\	2	8r	.	.
8r	.	8f# 8d/	2 4	.
=112	=112	=112	=112	=112
(8qD#X/	.	.	.	.
!LO:S:s=1:note:problem=note-level slur	!	!	!	!
8E) 8AA/	.	(16aa^>/LL	.	.
.	.	16a/)	.	.
8r	.	16a/	.	.
.	.	16a/JJ	.	.
8g#>\	.	8r	.	.
8r	.	8f# 8d/	.	.
!!LO:LB:g=original
=113	=113	=113	=113	=113
(8qD#X/	.	.	.	.
!LO:S:s=1:note:problem=note-level slur	!	!	!	!
8E) 8AA/	.	(16ee^>/LL	.	.
.	.	16e/)	.	.
8r	.	16e/	.	.
.	.	16e/JJ	.	.
8dn>\	.	8rb	.	.
8r	.	8c# 8A/	2 4	.
=114	=114	=114	=114	=114
(8qD#X/	.	.	.	.
!LO:S:s=1:note:problem=note-level slur	!	!	!	!
8E) 8AA/	.	(16ee^>/LL	.	.
.	.	16e/)	.	.
8r	.	16e/	.	.
.	.	16e/JJ	.	.
8dn>\	.	8rb	.	.
8r	.	8c# 8A/	.	.
=115	=115	=115	=115	=115
8EE 8AAA^>/	.	8eee 8ddd 8gg# 8ee^\	.	f
8r	.	16eeLL 16e/	.	.
.	.	16eeJ 16e/	.	.
8d#X>\	1	8dd#X/	.	.
8r	.	8eeJ 8e/	.	.
=116	=116	=116	=116	=116
*^	*	*^	*	*
8d#X\L	4ryy	1	8dd#X'<\L	4ryy	4	.
8dnJ 8cn\	.	1 2	8ddnJ 8ccn'<\	.	3 4	.
4B/	8B\L	1	8b/L	4b\	3	.
.	8E\J	5	8eeJ 8dd 8g# 8e/	.	.	.
*v	*v	*	*	*	*	*
*	*	*v	*v	*	*
=117	=117	=117	=117	=117
8EE 8AAA^>/	.	8eee 8ddd 8gg# 8ee^\	.	.
8r	.	16eeLL 16e/	.	.
.	.	16eeJ 16e/	.	.
8d#X>\	1	8dd#X/	.	.
8r	.	8eeJ 8e/	.	.
=118	=118	=118	=118	=118
*^	*	*^	*	*
8d#X\L	4ryy	.	8dd#X'<\L	4ryy	.	.
8dnJ 8cn\	.	.	8ddnJ 8ccn'<\	.	.	.
4B/	8B\L	.	8b/L	4b\	.	.
.	8E\J	.	8eeJ 8dd 8g# 8e/	.	.	.
*v	*v	*	*	*	*	*
*	*	*v	*v	*	*
!!LO:LB:g=original
=119	=119	=119	=119	=119
(8qGG#/	.	.	.	.
!LO:S:s=1:note:problem=note-level slur	!	!	!	!
8AA) 8DD/	.	16aa/LL	.	.
.	.	16a/	.	.
8r	.	16a/	.	.
.	.	16a/JJ	.	.
8g#>\	.	8r	.	.
8r	.	8f# 8d/	.	.
=120	=120	=120	=120	=120
(8qGG#/	.	.	.	.
!LO:S:s=1:note:problem=note-level slur	!	!	!	!
8AA) 8DD/	.	16aa/LL	.	.
.	.	16a/	.	.
8r	.	16a/	.	.
.	.	16a/JJ	.	.
8g#>\	.	8r	.	.
8r	.	8f# 8d/	.	.
=121	=121	=121	=121	=121
(8qDD#X/	.	.	.	.
!LO:S:s=1:note:problem=note-level slur	!	!	!	!
8EE) 8AAA/	.	16ee/LL	.	.
.	.	16e/	.	.
8r	.	16e/	.	.
.	.	16e/JJ	.	>
8d>\	.	8r	.	.
8r	.	8c# 8A/	.	.
=122	=122	=122	=122	=122
(8qDD#X/	.	.	.	.
!LO:S:s=1:note:problem=note-level slur	!	!	!	!
8EE) 8AAA/	.	16ee/LL	.	.
.	.	16e/	.	.
8r	.	16e/	.	.
.	.	16e/JJ	.	.
8d>\	.	8r	.	.
8r	.	8c# 8A/	.	.
=123	=123	=123	=123	=123
(8qGG#/	.	.	.	.
!LO:S:s=1:note:problem=note-level slur	!	!	!	!
8AA) 8DDn/	.	16aa/LL	.	.
.	.	16a/	.	.
8r	.	16a/	.	.
.	.	16a/JJ	.	.
8g#>\	.	8r	.	.
8r	.	8f# 8d/	.	<
=124	=124	=124	=124	=124
(8qGG#/	.	.	.	.
!LO:S:s=1:note:problem=note-level slur	!	!	!	!
8AA) 8DD/	.	16aa/LL	.	.
.	.	16a/	.	.
8r	.	16a/	.	.
.	.	16a/JJ	.	.
8g#>\	.	8r	.	.
8r	.	8f# 8d/	.	.
!!LO:LB:g=original
=125	=125	=125	=125	=125
8BB 8FF# 8BBB/	.	16ccc#/LL	.	.
.	.	16cc#/	.	.
8r	.	16cc#/	.	.
.	.	16cc#/JJ	.	.
8b> 8f#> 8B>\	.	8r	.	.
8r	.	8aa 8dd#X 8a/	.	.
=126	=126	=126	=126	=126
8BB 8FF# 8BBB/	.	16ccc#/LL	.	.
.	.	16cc#/	.	.
8r	.	16cc#/	.	.
.	.	16cc#/JJ	.	.
8b> 8f#> 8B>\	.	8r	.	.
8r	.	8aa 8dd#X 8a/	.	.
=127	=127	=127	=127	=127
8EE: 8EEE^>:/	.	16eee^\LL	.	ff
.	.	16ee\	.	.
8r	.	16ee\	.	.
.	.	16ee\JJ	.	.
!LO:TX:t=P:problem:mixed beam	!	!	!	!
8dd#X>L 8d#X>\	.	8r	.	.
!	!	!LO:TX:b:i:t=con forza	!	!
8e/J	4	8eee 8ee/	.	.
=128	=128	=128	=128	=128
*^	*	*^	*	*
8d#X\L	4ryy	1	8dd#X\L	4ryy	4	.
8dnJ 8cn\	.	1 2	8ddnJ 8ccn\	.	3 4	.
4B/	8B\L	1	8b/L	4b\	3	.
.	8E\J	.	8eeJ 8dd 8g# 8e/	.	.	.
*v	*v	*	*	*	*	*
*	*	*v	*v	*	*
=129	=129	=129	=129	=129
8EE: 8EEE:/	.	16ee/LL	.	.
.	.	16e/	.	.
8r	.	16e/	.	.
.	.	16e/JJ	.	.
8d#XL 8D#X\	.	8r	.	.
8E\J	4	8ee 8e/	.	.
=130	=130	=130	=130	=130
*^	*	*	*	*
!!LO:TX:a:i:t=poco rit.
8D#X/L	4ryy	1	8d#X/L	.	>
8DnJ 8Cn/	.	.	8dnJ 8cn/	.	.
4BB/	8BB\L	.	8B/L	.	.
.	8EE\J	.	8eJ 8d 8G#< 8E</	.	.
*v	*v	*	*	*	*
!!LO:LB:g=original
=131	=131	=131	=131	=131
!!LO:TX:a:i:t=a tempo
!LO:N:vis=4	!	!	!	!
(8qDD#X/	.	.	.	.
!LO:S:s=1:note:problem=note-level slur	!	!	!	!LO:DY:t=%s lusingando
8EE) 8AAA/	.	16ee/LL	.	p
.	.	16e/	.	.
8r	.	16e/	.	.
.	.	16e/JJ	.	.
8d#X>\	.	8rb	.	.
8r	.	8e/	.	.
=132	=132	=132	=132	=132
8d#X>\	.	8rb	.	.
.	.	(8qdn/	.	.
8r	.	8cn/)	.	.
4B\	.	8r	.	.
.	.	8ee 8dd 8g# 8e/	.	.
=133	=133	=133	=133	=133
8EE 8AAA/	.	16ee/LL	.	.
.	.	16e/	.	.
8r	.	16e/	.	.
.	.	16e/JJ	.	.
8d#X>\	.	8rb	.	.
8r	.	8e/	.	.
=134	=134	=134	=134	=134
8d#X>\	.	8rb	.	.
.	.	(8qdn/	.	.
8r	.	8cn'/)	.	.
4B\	.	8r	.	.
.	.	8ee 8dd 8g# 8e/	.	.
=135	=135	=135	=135	=135
8AAA/	.	16aa/LL	.	.
.	.	16a/	.	.
8r	.	16a/	.	.
.	.	16a/JJ	.	.
8gn> 8cn> 8A>\	.	8r	.	.
8r	.	8ffn 8fn/	.	.
=136	=136	=136	=136	=136
8AAA/	.	16aa/LL	.	.
.	.	16a/	.	.
8r	.	16a/	.	.
.	.	16a/JJ	.	.
8gn> 8cn> 8A>\	.	8r	.	.
8r	.	8ffn 8fn/	.	.
!!LO:LB:g=original
=137	=137	=137	=137	=137
(8qDD#X/	.	.	.	.
!LO:S:s=1:note:problem=note-level slur	!	!	!	!
8EE) 8AAA/	.	16ee/LL	.	.
.	.	16e/	.	.
8r	.	16e/	.	.
.	.	16e/JJ	.	.
8d>\	.	8rb	.	.
8r	.	8c#X 8A/	.	.
=138	=138	=138	=138	=138
(8qDD#X/	.	.	.	.
!LO:S:s=1:note:problem=note-level slur	!	!	!	!
8EE) 8AAA/	.	16ee/LL	.	.
.	.	16e/	.	.
8r	.	16e/	.	.
.	.	16e/JJ	.	.
8d>\	.	8rb	.	.
8r	.	8c# 8A/	.	.
=139	=139	=139	=139	=139
8AA/	.	16aa/LL	.	.
.	.	16a/	.	.
8r	.	16a/	.	.
.	.	16a/JJ	.	.
8gn> 8cn> 8A>\	.	8r	.	.
8r	.	8fn/	.	<
=140	=140	=140	=140	=140
8AA/	.	16aa/LL	.	.
.	.	16a/	.	.
8r	.	16a/	.	.
.	.	16a/JJ	.	.
!LO:SIC:v:s=8gn> 8cn> 8A>\	!	!	!	!
8gn> 8c#> 8An>\	.	8r	.	.
8r	.	8fn/	.	.
=141	=141	=141	=141	=141
!!LO:TX:a:i:t=poco allarg.
(8qC#X/	.	.	.	.
!LO:S:s=1:note:problem=note-level slur	!	!	!	!
4D) 4GGn/	.	16aa/LL	.	.
.	.	16a/	.	.
.	.	16a/	.	.
.	.	16a/JJ	.	.
8gn>\	.	8r	.	.
8r	.	8ffn 8b 8fn/	.	.
=142	=142	=142	=142	=142
(8qC#/	.	.	.	.
!LO:S:s=1:note:problem=note-level slur	!	!	!	!
4D) 4GGn/	.	16aa/LL	.	.
.	.	16a/	.	.
.	.	16a/	.	.
.	.	16a/JJ	.	.
8gn>\	.	8r	.	.
8r	.	8ffn 8b 8fn/	.	.
!!LO:PB:g=original
=143	=143	=143	=143	=143
!!LO:TX:a:i:t=a tempo
8GGnL 8CCn/	.	16eeeLL 16ee\	5	f
.	.	16ddd 16bb\	4	>
8GG 8CC/	.	16cccn\	3	.
.	.	16ggn\JJ	1	.
8rBB	.	16aa-XLL 16ff#X\	2 4	] p
.	.	16gg\	3	.
8GGJ 8CC/	.	16ee\	1	.
.	.	16ffnJJ 16dd#X\	2 4	.
=144	=144	=144	=144	=144
8GGnL 8CCn/	.	16ee\LL	3	.
.	.	16ccn\	1	.
8GG 8CC/	.	16ddn 16b\	.	.
.	.	16cc\JJ	.	.
8rBB	.	16gn/LL	.	.
.	.	16a-X 16f#X/	.	.
8GGJ 8CC/	.	16g/	.	.
.	.	16e/JJ	.	.
=145	=145	=145	=145	=145
8GGnL 8CCn/	.	16fnLL 16d#X/	.	.
.	.	16e/	.	.
8GG 8CC/	.	16cn/	.	.
.	.	16dnJJ 16B/	.	.
8rBB	.	16cn/LL	.	.
.	.	16Gn/	1	.
8GGJ 8CC/	.	16A-X 16F#X/	2 4	.
.	.	16G/JJ	3	.
=146	=146	=146	=146	=146
8GGnL 8CCn/	.	16Gn/LL	1	.
.	.	16A-X 16F#/	2 4	.
8GG 8CC/	.	16G/	3	.
.	.	16G/JJ	1	<
8rBB	.	16A-LL 16F#/	2 4	.
.	.	16G/	3	.
8GGJ 8CC/	.	16G/	1	.
.	.	16A-JJ 16F#/	2 4	.
=147	=147	=147	=147	=147
8GGnL 8CCn/	.	16Gn/LL	3	.
.	.	16G/	1	.
8GG 8CC/	.	16A-X 16F#/	.	.
.	.	16G/JJ	.	.
8rBB	.	16GLL/	.	.
.	.	16A- 16F#/	.	.
8GGJ 8CC/	.	16G/	.	.
.	.	16G/JJ	.	.
!!LO:LB:g=original
=148	=148	=148	=148	=148
8GGnL 8CCn/	.	16A-XLL 16F#/	.	.
.	.	16Gn/	.	.
8GG 8CC/	.	16G/	.	.
.	.	16A-JJ 16F#/	.	.
8rBB	.	16G/LL	.	.
.	.	16G/	.	.
8GGJ 8CC/	.	16A- 16F#/	.	.
.	.	16G/JJ	.	.
=149	=149	=149	=149	=149
8GGnL 8CCn/	.	16Gn/LL	.	.
.	.	16A-X 16F#/	.	.
8GG 8CC/	.	16G/	.	.
.	.	16G/JJ	.	.
8rBB	.	16A-LL 16F#/	.	.
.	.	16G/	.	.
8GGJ 8CC/	.	16G/	.	.
.	.	16A-JJ 16F#/	.	.
=150	=150	=150	=150	=150
!!LO:TX:a:B:t=Maestoso.
!LO:TX:b:rj:i:t=con 8	!	!	!	!LO:DY:a=2:rj
4CCn 4CCCnyy/	.	4r	.	sf
*	*	*8va	*	*
!	!	!	!	!LO:DY:rj
4gn 4cn 4Gn^\	.	4gggn 4cccn 4ggn^>/	.	ff
=151	=151	=151	=151	=151
4gn 4cn 4Gn^\	.	4gggn 4cccn 4ggn^>/	.	.
4g 4c 4G^\	.	4ggg 4ccc 4gg^>/	.	.
*	*	*X8va	*	*
=152	=152	=152	=152	=152
!!LO:TX:a:B:t=Tempo I.
8BBL 8EE/	.	16G#X^>/LL	.	fp
.	.	16A 16F##X/	.	.
8BB 8EE/	.	16G#/	.	.
.	.	16G#/JJ	.	.
8rD	.	16G#/LL	.	.
.	.	16A 16F##/	.	<
8BBJ 8EE/	.	16G#/	.	.
.	.	16G#/JJ	.	.
=153	=153	=153	=153	=153
8BBL 8EE/	.	16G#/LL	.	.
.	.	16A 16F##X/	.	.
8BB 8EE/	.	16G#/	.	.
.	.	16G#/JJ	.	.
8rD	.	16G#/LL	.	.
.	.	16A 16F##/	.	.
8BBJ 8EE/	.	16G#/	.	.
.	.	16G#/JJ	.	.
!!LO:LB:g=original
=154	=154	=154	=154	=154
8BBL 8EE/	.	16G#/LL	.	.
.	.	16A 16F##X/	.	.
8BB 8EE/	.	16G#/	.	.
.	.	16G#/JJ	.	.
8rD	.	16G#/LL	.	.
.	.	16A 16F##/	.	.
8BBJ 8EE/	.	16G#/	.	.
.	.	16G#/JJ	.	.
=155	=155	=155	=155	=155
8BBL 8EE/	.	16G#/LL	.	.
.	.	16A 16F##X/	.	.
8BB 8EE/	.	16G#/	.	.
.	.	16G#/JJ	.	.
8rD	.	16G#/LL	.	.
.	.	16A 16F##/	.	.
8BBJ 8EE/	.	16G#/	.	.
.	.	16G#/JJ	.	.
=156	=156	=156	=156	=156
!!LO:TX:a:B:t=Maestoso.
!LO:TX:b:rj:i:t=con 8	!	!	!	!
4CC#^> 4CCC#yy/	.	4r	.	ff
*	*	*8va	*	*
4g# 4c# 4G#^\	.	4ggg# 4ccc# 4gg#^>/	.	.
=157	=157	=157	=157	=157
4g# 4c# 4G#^\	.	4ggg# 4ccc# 4gg#^>/	.	.
4g# 4c# 4G#^\	.	4ggg# 4ccc# 4gg#^>/	.	.
*	*	*X8va	*	*
=158	=158	=158	=158	=158
!!LO:TX:a:B:t=Tempo I.
4ryy	.	(36ff##X/LLL	.	p
.	.	36gg#/	.	.
.	.	36ff##/	.	.
.	.	36ee#X/	.	.
.	.	36dd#X/	.	.
.	.	36cc#/JJJ	.	.
.	.	36b#X\LLL	.	.
.	.	36a#X\	.	.
.	.	36f##X\JJJ)	.	.
[4d#X>\	.	4ryy	.	.
=159	=159	=159	=159	=159
2d#>;\]	.	2ryy	.	.
!!LO:LB:g=original
=160	=160	=160	=160	=160
!!LO:TX:a:B:t=Maestoso.
!LO:TX:b:rj:i:t=con 8	!	!	!	!
4CC#^> 4CCC#yy/	.	4r	.	pp
*	*	*8va	*	*
4g# 4c# 4G#~\	.	4ggg# 4ccc# 4gg#~>/	.	.
=161	=161	=161	=161	=161
4g# 4c# 4G#~\	.	4ggg# 4ccc# 4gg#~>/	.	.
4g# 4c# 4G#~\	.	4ggg# 4ccc# 4gg#~>/	.	.
*	*	*X8va	*	*
=162	=162	=162	=162	=162
!!LO:TX:a:B:t=Tempo I.
!	!	!LO:TX:t=P:problem:mixed beam	!	!
!	!	!LO:TUP:a	!	!
4ryy	.	(36f##X\LLL	.	.
.	.	36g#\	.	.
.	.	36f##\	.	.
.	.	36e#X\	.	.
.	.	36d#X\	.	.
.	.	36c#\	.	.
.	.	36B#X</	.	.
.	.	36A#X</	.	.
.	.	36F##X</JJJ)	.	.
[>4D#X\	.	4ryy	.	.
=163	=163	=163	=163	=163
2D#;\]	.	2r	.	.
=164	=164	=164	=164	=164
(8qD#X/	.	.	.	.
!LO:S:s=1:note:problem=note-level slur	!	!	!	!
8E) 8AA/	.	16ee/LL	.	p
.	.	16e/	.	.
8r	.	16e/	.	.
.	.	16e/JJ	.	.
8d#X>\	.	8rb	.	.
8r	.	8e/	.	.
=165	=165	=165	=165	=165
8d#X>\	.	8rb	.	.
.	.	(8qdn/	.	.
8r	.	8cn/)	.	.
4B\	.	8r	.	.
.	.	8ee 8dd 8g# 8e/	.	.
=166	=166	=166	=166	=166
(8qD#X/	.	.	.	.
!LO:S:s=1:note:problem=note-level slur	!	!	!	!
8E) 8AA/	.	16ee/LL	.	.
.	.	16e/	.	.
8rb	.	16e/	.	.
.	.	16e/JJ	.	.
8d#X>\	.	8rb	.	.
8r	.	8e/	.	.
!!LO:LB:g=original
=167	=167	=167	=167	=167
8d#X>\	.	8rb	.	.
.	.	(8qdn/	.	.
8r	.	8cn/)	.	.
4B\	.	8r	.	.
.	.	8ee 8dd 8g# 8e/	.	.
=168	=168	=168	=168	=168
(8qD#X/	.	.	.	.
!LO:S:s=1:note:problem=note-level slur	!	!LO:SIC:v:s=(16aa/LL	!	!
8E) 8AA/	.	(16gg#/LL	.	.
.	.	16a/)	.	.
8r	.	16a/	.	.
.	.	16a/JJ	.	.
8g#>\	.	8r	.	.
8r	.	8f# 8d/	.	.
=169	=169	=169	=169	=169
(8qD#X/	.	.	.	.
!LO:S:s=1:note:problem=note-level slur	!	!LO:SIC:v:s=(16aa/LL	!	!
8E) 8AA/	.	(16gg#/LL	.	.
.	.	16a/)	.	.
8r	.	16a/	.	.
.	.	16a/JJ	.	.
8g#>\	.	8r	.	.
8r	.	8f# 8d/	.	.
=170	=170	=170	=170	=170
(8qD#X/	.	.	.	.
!LO:S:s=1:note:problem=note-level slur	!	!	!	!
8E) 8AA/	.	(16ee/LL	.	.
.	.	16e/)	.	.
8r	.	16e/	.	.
.	.	16e/JJ	.	.
8d>\	.	8rb	.	.
8r	.	8c# 8A/	.	.
=171	=171	=171	=171	=171
(8qD#X/	.	.	.	.
!LO:S:s=1:note:problem=note-level slur	!	!	!	!
8E) 8AA/	.	(16ee/LL	.	.
.	.	16e/)	.	.
8r	.	16e/	.	.
.	.	16e/JJ	.	.
8d>\	.	8rb	.	.
8r	.	8c# 8A/	.	.
=172	=172	=172	=172	=172
4EE 4AAA^>/	.	8eee 8ddd 8gg# 8ee^\	.	f
.	.	16eeLL 16e/	.	.
.	.	16eeJJ 16e/	.	.
8d#X>\	.	8dd#X/L	.	.
8r	.	8eeJ 8e/	.	.
!!LO:LB:g=original
=173	=173	=173	=173	=173
*^	*	*	*	*
8d#X\L	4ryy	.	8dd#X\L	.	.
8dnJ 8cn\	.	.	8ddnJ 8ccn\	.	.
!	!	!	!LO:N:vis=4	!	!
4B/	8B\L	.	8b\	.	.
.	8E\J	.	8ee 8dd 8g# 8e/	.	.
*v	*v	*	*	*	*
=174	=174	=174	=174	=174
4EE 4AAA/	.	8eee 8ddd 8gg# 8ee\	.	.
.	.	16eeLL 16e/	.	.
.	.	16eeJJ 16e/	.	.
8d#X>\	.	8dd#X/L	.	.
8r	.	8eeJ 8e/	.	.
=175	=175	=175	=175	=175
*^	*	*	*	*
8d#X\L	4ryy	.	8dd#X\L	.	.
8dnJ 8cn\	.	.	8ddnJ 8ccn\	.	.
!	!	!	!LO:N:vis=4	!	!
4B/	8B\L	.	8b\	.	.
.	8E\J	.	8ee 8dd 8g# 8e/	.	.
*v	*v	*	*	*	*
=176	=176	=176	=176	=176
8AA/	.	(16aa/LL	.	.
.	.	16a/)	.	.
8r	.	16a/	.	.
.	.	16a/JJ	.	.
8gn> 8cn> 8A>\	.	8rff	.	.
8r	.	8ffn 8fn/	.	.
=177	=177	=177	=177	=177
8AA/	.	(16aa/LL	.	.
.	.	16a/)	.	.
8r	.	16a/	.	.
.	.	16a/JJ	.	.
8gn> 8cn> 8A>\	.	8rff	.	.
8r	.	8ffn 8fn/	.	.
=178	=178	=178	=178	=178
!	!	!LO:TX:b:t=1	!	!
2r	.	2r	.	.
!!LO:PB:g=original
=179	=179	=179	=179	=179
(8qD#X/	.	.	.	.
!LO:S:s=1:note:problem=note-level slur	!	!	!	!LO:DY:rj
8E) 8AA/	.	(16ee/LL	.	p
.	.	16e/)	.	.
8r	.	16e/	.	.
.	.	16e/JJ	.	.
8d>\	.	8rb	.	.
8r	.	8c#X 8A/	.	.
=180	=180	=180	=180	=180
!	!	!LO:TX:b:t=1	!	!
2r	.	2r	.	.
=181	=181	=181	=181	=181
!	!	!LO:TX:t=P:problem:mixed beam	!	!
8AAA/	.	16a\LL	.	f
.	.	16A</	.	.
8rGG	.	16A</	.	.
.	.	16A</JJ	.	.
8Gn 8Cn 8AA\	.	8r	.	.
8rGG	.	8fn< 8Fn</	.	.
=182	=182	=182	=182	=182
!	!	!LO:TX:b:t=1	!	!
2r	.	2r	.	.
=183	=183	=183	=183	=183
!!LO:TX:a:i:t=calando
(8qDD#X/	.	.	.	.
!	!	!LO:TX:t=P:problem:mixed beam	!	!LO:DY:rj
8EE 8AAA\)	.	16e\LL	.	p
.	.	16E</	.	.
8r	.	16E</	.	.
.	.	16E</JJ	.	.
8D\	.	8ryy	.	.
8ryy	.	8C#</	.	.
=184	=184	=184	=184	=184
!	!	!LO:TX:b:t=1	!	!
2r	.	2r	.	.
=185||	=185||	=185||	=185||	=185||
*k[]	*	*k[]	*	*
*^	*	*	*	*
!!LO:TX:a:i:t=a tempo
8.ryy	[>2EE [2AAA/	.	8aL 8c/	4	ff
.	.	.	16bL 16g/	5	.
16ee>\LL	.	2	16ryy	.	.
16ryy	.	.	16cc 16e/	4	.
16ee>\	.	.	16ryy	.	.
16ryy	.	.	16ddJJ 16b/	5	.
16ee>\JJ	.	.	16ryy	.	.
=186	=186	=186	=186	=186	=186
16ryy	2EE_> 2AAA/_	.	8ddL 8a/	1 4	.
16ee>\LL	.	.	.	.	.
16ryy	.	.	16cc/L	3	.
16ee>\JJ	.	.	16ryy	.	.
16ryy	.	.	16cc/	.	.
16ee>\LL	.	.	16ryy	.	.
16ryy	.	.	16cc/JJ	.	.
16ee>\JJ	.	.	16ryy	.	.
!!LO:LB:g=original
=187	=187	=187	=187	=187	=187
16ryy	2EE_ 2AAA/_	.	16dd/LL	4	.
16ee>\LL	.	.	16ryy	.	.
16ryy	.	.	16cc/JJ	3	.
16ee>\JJ	.	.	16ryy	.	.
16ryy	.	.	16b/LL	2	.
16ee>\LL	.	.	16ryy	.	.
16ryy	.	.	16g/JJ	1	.
16ee>\JJ	.	.	16ryy	.	.
=188	=188	=188	=188	=188	=188
16ryy	2EE] 2AAA/]	.	16a/LL	2	.
16ee>\LL	.	.	16ryy	.	.
16ryy	.	.	16b/JJ	3	.
16ee>\JJ	.	.	16ryy	.	.
16ryy	.	.	16cc/LL	4	.
16ee>\LL	.	.	16ryy	.	.
16ryy	.	.	16a/JJ	.	.
16ee>\JJ	.	.	16ryy	.	.
*v	*v	*	*	*	*
=189	=189	=189	=189	=189
16ryy	.	16dd/LL	.	.
16ee>\LL	.	16ryy	.	.
16ryy	.	16cc/JJ	.	.
16ee>\JJ	.	16ryy	.	.
16ryy	.	16b/LL	.	.
16ee>\LL	.	16ryy	.	.
16ryy	.	16g/JJ	.	.
16ee>\JJ	.	16ryy	.	.
=190	=190	=190	=190	=190
16ryy	.	16a/LL	.	.
16ee>\LL	.	16ryy	.	.
16ryy	.	16b/JJ	.	.
16ee>\JJ	.	16ryy	.	.
16ryy	.	16cc/LL	.	.
16ee>\LL	.	16ryy	.	.
16ryy	.	16a/JJ	.	.
16ee>\JJ	.	16ryy	.	.
=191	=191	=191	=191	=191
16ryy	.	16dd/LL	.	.
16ee>\LL	.	16ryy	.	.
16ryy	.	16cc/JJ	.	.
16ee>\JJ	.	16ryy	.	.
16ryy	.	16b/LL	.	.
16ee>\LL	.	16ryy	.	.
16ryy	.	16dd/JJ	.	.
16ee>\JJ	.	16ryy	.	.
=192	=192	=192	=192	=192
16ryy	.	16cc/LL	.	.
16ee>\LL	.	16ryy	.	.
16ryy	.	16b/JJ	.	.
16ee>\JJ	.	16ryy	.	.
16ryy	.	16cc/LL	.	.
16ee>\LL	.	16ryy	.	.
16ryy	.	16a/JJ	.	.
16ee>\JJ	.	16ryy	.	.
!!LO:LB:g=original
=193	=193	=193	=193	=193
16ryy	.	16b/LL	.	.
16ee>\LL	.	16ryy	.	.
16ryy	.	16a/JJ	.	.
16ee>\JJ	.	16ryy	.	.
16ryy	.	16g/LL	.	.
16ee>\LL	.	16ryy	.	.
16ryy	.	16b/JJ	.	.
16ee>\JJ	.	16ryy	.	.
=194	=194	=194	=194	=194
8r	.	[2a^>/	.	.
4E 4AA^>/	.	.	.	.
8E 8AA/	.	.	.	.
=195	=195	=195	=195	=195
8EL 8AA/	.	2a/_	.	.
8E 8AA/	.	.	.	.
8r	.	.	.	>
8EJ 8AA/	.	.	.	.
=196	=196	=196	=196	=196
8EL 8AA/	.	2a/_	.	.
8E 8AA/	.	.	.	.
8r	.	.	.	.
8EJ 8AA/	.	.	.	.
=197	=197	=197	=197	=197
8EL 8AA/	.	4a/]	.	.
8E 8AA/	.	.	.	.
8r	.	4r	.	]
8EJ 8AA/	.	.	.	.
=198	=198	=198	=198	=198
8E 8AA/	.	(16c/LL	.	p
.	.	16a/	.	.
!	!	!LO:TX:b:i:t=cantabile	!	!
(4c\	.	16g/	.	.
.	.	16b/JJ	.	.
.	.	16e/LL	.	.
.	.	16cc/	.	.
[8B\)	.	16b/	.	.
.	.	16dd/JJ	.	.
=199	=199	=199	=199	=199
8B\L]	.	16a\LL	.	.
.	.	16dd\	.	.
8A'~\	1	16cc\	.	.
.	.	16ee\JJ	.	.
8G'~\	2	16cc\LL	.	.
.	.	16ee\	.	.
8F'~\J	3	16cc\	.	.
.	.	16ee\JJ	.	.
!!LO:LB:g=original
=200	=200	=200	=200	=200
8E 8AA'/	2 5	16dd\LL	.	.
.	.	16ee\	.	.
(4B\	1	16cc\	.	.
.	.	16ee\JJ	.	.
.	.	16b\LL	.	.
.	.	16ee\	.	.
8d\)	2	16g\	.	.
.	.	16ee\JJ	.	.
=201	=201	=201	=201	=201
8c'\L	1	16a\LL	.	.
.	.	16ee\	.	.
8B'\J	.	16b\	.	.
.	.	16ee\JJ	.	.
4A\	.	16cc\LL	.	.
.	.	16ee\	.	.
.	.	16a\	.	.
.	.	16ee\JJ	.	.
=202	=202	=202	=202	=202
8E 8AA/	.	16dd\LL	.	.
.	.	16ee\	.	.
(4B\	.	16cc\	.	.
.	.	16ee\JJ	.	.
.	.	16b\LL	.	.
.	.	16ee\	.	.
8d\)	.	16g\	.	.
.	.	16ee\JJ	.	.
=203	=203	=203	=203	=203
8c\L	.	16a\LL	.	.
.	.	16ee\	.	.
8B\J	.	16b\	.	.
.	.	16ee\JJ	.	.
4A\	.	16cc\LL	.	.
.	.	16ee\	.	.
.	.	16a\	.	.
.	.	16ee\JJ	.	.
=204	=204	=204	=204	=204
8E 8AA/	.	16dd\LL	.	.
.	.	16ee\	.	.
4e\	1	16cc\	.	.
.	.	16ee\JJ	.	.
.	.	16b\LL	.	.
.	.	16ee\	.	.
8f\	2	16dd\	.	.
.	.	16ee\JJ	.	.
=205	=205	=205	=205	=205
8e\L	1	16cc\LL	.	.
.	.	16ee\	.	.
8d\	.	16b\	.	.
.	.	16ee\JJ	.	.
8c\	.	16cc\LL	.	.
.	.	16ee\	.	.
8e\J	.	16a\	.	.
.	.	16ee\JJ	.	.
!!LO:LB:g=original
=206	=206	=206	=206	=206
8d\	2	16b\LL	.	.
.	.	16ee\	.	.
(4e\	1	16a\	.	.
.	.	16ee\JJ	.	.
.	.	16g\LL	.	.
.	.	16ee\	.	.
!	!	!LO:TX:b:i:t=rit.	!	!
8d\	.	16b\	.	.
.	.	16ee\JJ	.	.
=207	=207	=207	=207	=207
8c\L)	.	2a/)	.	.
8B\J	.	.	.	.
4A\	.	.	.	.
=208	=208	=208	=208	=208
!!LO:TX:a:i:t=a tempo
8CL 8FF^>/	.	(16cc^\LL	2	.
.	.	16ff\	.	.
8C 8FF/	.	16b-X\	.	.
.	.	16ff\JJ	.	.
8r	.	16a-X\LL	1	.
.	.	16ff\	.	.
8CJ 8FF/	.	16cc\	2	.
.	.	16ff\JJ)	.	.
=209	=209	=209	=209	=209
8EL 8AA/	.	(16cc\LL	2	.
.	.	16ee\	.	.
8E 8AA/	.	16bn\	1	.
.	.	16ee\JJ	.	.
8r	.	4an/)	.	.
8EJ 8AA/	.	.	.	.
=210	=210	=210	=210	=210
8CL 8FF^>/	.	(16cc^\LL	.	.
.	.	16ff\	.	.
8C 8FF/	.	16b-X\	.	.
.	.	16ff\JJ	.	.
8r	.	16a-X\LL	.	.
.	.	16ff\	.	.
8CJ 8FF/	.	16cc\	.	.
.	.	16ff\JJ)	.	.
=211	=211	=211	=211	=211
8EL 8AA/	.	(16cc\LL	.	.
.	.	16ee\	.	.
8E 8AA/	.	16bn\	.	.
.	.	16ee\JJ	.	.
8r	.	4an/)	.	.
8EJ 8AA/	.	.	.	.
!!LO:LB:g=original
=212	=212	=212	=212	=212
8CL 8FF/	.	(16cc\LL	.	.
.	.	16ff\	.	.
8C 8FF/	.	16b-X\	.	.
.	.	16ff\JJ	.	.
8r	.	16a-X\LL	.	<
.	.	16ff\	.	.
8CJ 8FF/	.	16cc\	.	.
.	.	16ff\JJ)	.	[[
=213	=213	=213	=213	=213
8GGL 8CC/	.	(16ee\LL	3	>
.	.	16gg\	.	.
8GG 8CC/	.	16dd\	2	.
.	.	16gg\JJ	.	.
8rD	.	4cc\)	1	]
8GGJ 8CC/	.	.	.	.
=214	=214	=214	=214	=214
8CL 8FF/	.	(16cc\LL	2	.
.	.	16ff\	.	.
8C 8FF/	.	16b-X\	.	.
.	.	16ff\JJ	.	.
!	!	!	!	!LO:HP:t=poco cresc.
8r	.	16a-X\LL	.	<
.	.	16ff\	.	.
8CJ 8FF/	.	16cc\	.	.
.	.	16ff\JJ)	.	.
=215	=215	=215	=215	=215
8GGL 8CC/	.	(16ee\LL	3	.
.	.	16gg\	.	.
8GG 8CC/	.	16dd\	2	.
.	.	16gg\JJ	.	.
8rD	.	4cc\)	1	.
8GGJ 8CC/	.	.	.	.
=216	=216	=216	=216	=216
4.BBB^>/	.	(16ff\LL	2	mf
.	.	16aa-X\	4	.
.	.	16ee-X\	1	.
.	.	16aa-\JJ	.	.
.	.	4dd-X\)	.	.
8d-X 8A-X 8F\	.	.	.	.
=217	=217	=217	=217	=217
8GL 8C\	.	(16een\LL	3	p
.	.	16gg\	.	.
8G 8C\	.	16ddn\	.	.
.	.	16gg\JJ	.	.
8ryy	.	4cc\)	.	.
8GJ 8C\	.	.	.	.
=218	=218	=218	=218	=218
4.BBB/	.	(16ff\LL	.	mf
.	.	16aa-X\	.	.
.	.	16ee-X\	.	.
.	.	16aa-\JJ	.	.
.	.	4dd-X\)	.	.
8d-X 8A-X 8F\	.	.	.	.
!!LO:PB:g=original
=219	=219	=219	=219	=219
8GL 8C\	.	(16een\LL	.	p
.	.	16gg\	.	.
8G 8C\	.	16ddn\	.	.
.	.	16gg\JJ	.	.
8r	.	4cc\)	.	.
8GJ 8C\	.	.	.	.
=220	=220	=220	=220	=220
4.BB/	.	(16ff\LL	.	.
.	.	16aa-X\	.	.
.	.	16ee-X\	.	.
.	.	16aa-\JJ	.	.
.	.	4dd-X\)	.	.
8d-X 8A-X 8F\	.	.	.	.
=221	=221	=221	=221	=221
4.BB/	.	(16ff\LL	.	.
.	.	16aa-X\	.	.
.	.	16ee-X\	.	.
.	.	16aa-\JJ	.	<
.	.	4dd-X\)	.	.
8d-X 8A-X 8F\	.	.	.	.
=222	=222	=222	=222	=222
4.AAn/	.	(16ff\LL	.	.
.	.	16aan\	.	.
.	.	16een\	.	.
.	.	16aa\JJ	.	.
.	.	4ddn^\)	.	.
8dn 8An 8F\	.	.	.	.
=223	=223	=223	=223	=223
4.AA/	.	(16ff\LL	.	.
.	.	16aa\	.	.
.	.	16ee\	.	.
.	.	16aa\JJ	.	.
.	.	4dd^\)	.	.
8d 8A 8F\	.	.	.	.
=224	=224	=224	=224	=224
4.GG#X/	.	(16ff\LL	.	.
.	.	16bb\	.	.
.	.	16ee\	.	.
.	.	16bb\JJ	.	.
.	.	16dd\LL	.	.
.	.	16bb\	.	.
8d 8B 8F\	.	16b\	.	.
.	.	16bb\JJ	.	.
=225	=225	=225	=225	=225
8dL 8B 8F/	.	16ff\LL	.	.
.	.	16bb\	.	.
8d 8B 8F/	.	16ee\	.	.
.	.	16bb\JJ	.	.
8rA	.	16dd\LL	.	.
.	.	16bb\	.	.
8GG#XJ 8GGG#X/	.	16b\	.	.
.	.	16bb\JJ)	.	.
!!LO:LB:g=original
=226	=226	=226	=226	=226
8GGnL 8GGGn/	.	(16ccc\LL	.	f
.	.	16eee\	.	.
8e 8A 8E/	.	16bb\	.	.
.	.	16ccc\JJ	.	.
8rD	.	16aa\LL	.	.
.	.	16ccc\	.	.
8eJ 8A 8E/	.	16ff\	.	.
.	.	16aa\JJ	.	.
=227	=227	=227	=227	=227
8eL 8A 8E\	.	16ee\LL	.	.
.	.	16aa\	.	.
8e 8A 8E\	.	16dd\	.	.
.	.	16ee\JJ	.	>
8rD	.	16cc\LL	.	.
.	.	16ee\	.	.
8eJ 8A 8E\	.	16b\	.	.
.	.	16cc\JJ	.	.
=228	=228	=228	=228	=228
8eL 8A 8E/	.	16a/LL	.	.
.	.	16cc/	.	.
8GG 8GGG/	.	16f/	.	.
.	.	16a/JJ	.	.
8rD	.	16e/LL	.	.
.	.	16a/	.	.
8GGJ 8GGG/	.	16d/	.	.
.	.	16e/JJ	.	.
=229	=229	=229	=229	=229
!	!	!LO:TX:t=P:problem:mixed beam	!	!
8GGL 8GGG\	.	16c\LL	.	.
.	.	16e\	.	.
8GG 8GGG\	.	16B</	.	.
.	.	16c</JJ	.	.
8rGG	.	16A</LL	.	.
.	.	16c</	.	.
8GGJ 8GGG\	.	16F</	.	.
.	.	16A</JJ	.	.
=230	=230	=230	=230	=230
!	!	!LO:TX:t=P:problem:mixed beam	!	!
8GGL 8GGG\	.	16E</LL	.	p
.	.	16e\	.	.
8CC\	.	16B</	.	.
.	.	16c</JJ	.	.
8GG 8GGG\	.	16A</LL	.	.
.	.	16c</	.	.
8CC\J	.	16F</	.	.
.	.	16A</JJ	.	.
=231	=231	=231	=231	=231
!	!	!LO:TX:t=P:problem:mixed beam	!	!
8GGL 8GGG\	.	16E</LL	.	.
.	.	16e\	.	.
8CC\	.	16B</	.	.
.	.	16c</JJ	.	<
8GG 8GGG\	.	16A</LL	.	.
.	.	16c</	.	.
8CC\J	.	16F</	.	.
.	.	16A</JJ	.	.
=232	=232	=232	=232	=232
!	!	!LO:TX:t=P:problem:mixed beam	!	!
8GGL 8GGG\	.	16E</LL	.	.
.	.	16e\	.	.
8CC\	.	16B</	.	.
.	.	16c</JJ	.	.
!	!	!LO:TX:t=P:problem:mixed beam	!	!
8GG 8GGG\	.	16A</LL	.	.
.	.	16e\	.	.
8CC\J	.	16B</	.	.
.	.	16c</JJ	.	.
!!LO:LB:g=original
=233	=233	=233	=233	=233
!	!	!LO:TX:t=P:problem:mixed beam	!	!
8GGL 8GGG\	.	16A</LL	.	.
.	.	16e\	.	.
8CC\	.	16B</	.	.
.	.	16c</JJ	.	.
!	!	!LO:TX:t=P:problem:mixed beam	!	!
8GG 8GGG\	.	16A</LL	.	.
.	.	16e\	.	.
8CC\J	.	16B</	.	.
.	.	16c</JJ)	.	.
=234	=234	=234	=234	=234
!	!	!LO:TX:t=P:problem:mixed beam	!	!
4FF#X 4FFF#X\	.	(16A</LL	.	.
.	.	16e\	.	.
.	.	16B</	.	.
.	.	16c</JJ	.	.
!	!	!LO:TX:t=P:problem:mixed beam	!	!
4rGG	.	16A</LL	.	.
.	.	16a\	.	.
.	.	16d\	.	.
.	.	16e\JJ	.	.
=235	=235	=235	=235	=235
4A: 4E: 4C: 4FF#X:/	.	16c/LL	.	.
.	.	16cc/	.	.
.	.	16g/	.	.
.	.	16a/JJ	.	.
4r	.	16e\LL	.	<
.	.	16ee\	.	.
.	.	16b\	.	.
.	.	16cc\JJ	.	.
=236	=236	=236	=236	=236
4FF#X 4FFF#X/	.	16a\LL	.	.
.	.	16aa\	.	.
.	.	16dd\	.	.
.	.	16ee\JJ	.	.
4r	.	16cc\LL	.	.
.	.	16ccc\	.	.
.	.	16gg\	.	.
.	.	16aa\JJ	.	[
=237	=237	=237	=237	=237
[2a [2e [>2c 2F#X\	.	16e\LL	.	.
.	.	16ee\	.	.
.	.	16b\	.	.
.	.	16cc\JJ	.	.
.	.	16a\LL	.	.
.	.	16aa\	.	.
.	.	16dd\	.	.
.	.	16ee\JJ	.	.
=238	=238	=238	=238	=238
*	*	*8va	*	*
4a] 4e] 4c\]	.	16ccc\LL	.	.
.	.	16cccc\	.	.
.	.	16ggg\	.	.
.	.	16aaa\JJ	.	.
4FF#X 4FFF#X/	.	16eee\LL	.	.
.	.	16eeee\	.	.
.	.	16bbb\	.	.
.	.	16cccc\JJ	.	ff
=239	=239	=239	=239	=239
4a 4e 4c^\	.	16aaa\LL	.	.
.	.	16eeee\	.	.
.	.	16bbb\	.	.
.	.	16cccc\JJ	.	.
4FF#X 4FFF#X/	.	16aaa\LL	.	.
.	.	16eeee\	.	.
.	.	16bbb\	.	.
.	.	16cccc\JJ	.	.
!!LO:LB:g=original
=240	=240	=240	=240	=240
4a 4e 4c^\	.	16aaa\LL	.	.
.	.	16eeee\	.	.
.	.	16bbb\	.	.
.	.	16cccc\JJ	.	.
4FF#X 4FFF#X/	.	16aaa\LL	.	.
.	.	16eeee\	.	.
.	.	16bbb\	.	.
.	.	16cccc\JJ	.	.
=241	=241	=241	=241	=241
4a 4e 4c^\	.	16aaa\LL	.	.
.	.	16eeee\	.	.
.	.	16bbb\	.	.
!	!	!LO:SIC:v:s=16cccc\JJ	!	!
.	.	16dddd\JJ	.	.
4FF#X 4FFF#X/	.	16aaa\LL	.	.
.	.	16eeee\	.	.
.	.	16bbb\	.	.
.	.	16cccc\JJ)	.	.
=242	=242	=242	=242	=242
[2BB [2FF#X [2BBB/	.	(16aaa\LL	1	sf
.	.	16dddd#X\	5	.
.	.	16bbb\	2	.
.	.	16cccc\JJ	3	.
.	.	16aaa\LL	1	.
.	.	16cccc\	5	.
.	.	16ggg\	2	.
.	.	16aaa\JJ)	3	.
=243	=243	=243	=243	=243
*^	*	*	*	*
*8va	*X8va	*	*	*	*
!LO:TX:a:i:t=m.g.	!	!	!	!	!
16fff#X>\LL	4BB] 4FF#] 4BBB/]	.	16ryy	.	.
16ryy	.	.	16aaa/LL	4	.
16eee>\JJ	.	.	16ryy	.	.
16ryy	.	.	16fff#y/JJ	.	.
16ddd#X>\LL	4ryy	.	16ryy	.	.
16ryy	.	.	16fff#y/LL	.	.
16dddn>\JJ	.	.	16ryy	.	.
16ryy	.	.	16ddd#X/JJ	.	.
*v	*v	*	*	*	*
=244	=244	=244	=244	=244
16ccc>\LL	.	16ryy	.	.
16ryy	.	16ddd#X/LL	.	.
16bb>\JJ	.	16ryy	.	.
16ryy	.	16ccc/JJ	.	.
16aa>\LL	.	16ryy	.	.
16ryy	.	16ccc/LL	.	.
16gg>\JJ	.	16ryy	.	.
16ryy	.	16aa/JJ	.	.
*X8va	*	*X8va	*	*
=245	=245	=245	=245	=245
16ff#X>\LL	.	16ryy	.	.
16ryy	.	16aa/LL	.	.
16ee>\JJ	.	16ryy	.	.
16ryy	.	16ff#/JJ	.	<
16dd#X>\LL	.	16ryy	.	.
16ryy	.	16ff#/LL	.	.
16ddn>\JJ	.	16ryy	.	.
16ryy	.	16dd#X/JJ	.	.
!!LO:LB:g=original
=246	=246	=246	=246	=246
16cc>\LL	.	16ryy	.	.
16ryy	.	16dd#X/LL	.	.
16b>\JJ	.	16ryy	.	.
16ryy	.	16cc/JJ	.	.
16a>\LL	.	16ryy	.	.
16ryy	.	16cc/LL	.	.
16g>\JJ	.	16ryy	.	.
16ryy	.	16a/JJ	.	.
=247	=247	=247	=247	=247
16f#X>\LL	.	16ryy	.	.
16ryy	.	16a/LL	.	.
16e>\JJ	.	16ryy	.	.
16ryy	.	16f#y/JJ	.	.
16d#X>\LL	.	16ryy	.	.
16ryy	.	16f#y/LL	.	.
16dn>\JJ	.	16ryy	.	.
16ryy	.	16d#X/JJ	.	[[
=248	=248	=248	=248	=248
16c\LL	.	16ryy	.	.
16ryy	.	16d#X</LL	.	.
16B\JJ	.	16ryy	.	.
16ryy	.	16c</JJ	.	.
16A\LL	.	16ryy	.	.
16ryy	.	16c</LL	.	.
16G\JJ	.	16ryy	.	.
16ryy	.	16A</JJ	.	.
=249	=249	=249	=249	=249
16F#X\LL	.	16ryy	.	.
16ryy	.	16A</LL	.	.
16E\JJ	.	16ryy	.	.
16ryy	.	16F#y</JJ	.	.
16D#X\LL	.	16ryy	.	.
16ryy	.	16F#y</LL	.	.
16Dn\JJ	.	16ryy	.	.
16ryy	.	16D#X</JJ	.	.
=250	=250	=250	=250	=250
16C\LL	.	16ryy	.	.
16ryy	.	16E-X</LL	.	.
16Dn\JJ	.	16ryy	.	.
16ryy	.	16F#X</JJ	.	.
16C\LL	.	16ryy	.	.
16ryy	.	16E-</LL	.	.
16D\JJ	.	16ryy	.	.
16ryy	.	16F#</JJ	.	.
=251	=251	=251	=251	=251
16C\LL	.	16ryy	.	.
16ryy	.	16E-X</LL	.	.
16Dn\JJ	.	16ryy	.	.
16ryy	.	16F#X</JJ	.	.
16C\LL	.	16ryy	.	.
16ryy	.	16E-</LL	.	.
16D\JJ	.	16ryy	.	.
16ryy	.	16F#</JJ	.	.
!!LO:LB:g=original
=252	=252	=252	=252	=252
16C\LL	.	16ryy	.	.
16ryy	.	16E-X</LL	.	.
16D\JJ	.	16ryy	.	.
16ryy	.	16F#X</JJ	.	.
16C\LL	.	16ryy	.	.
16ryy	.	16E-</LL	.	.
16D\JJ	.	16ryy	.	.
16ryy	.	16F#</JJ	.	.
=253	=253	=253	=253	=253
16C\LL	.	16ryy	.	.
16ryy	.	16E-X</LL	.	.
16D\JJ	.	16ryy	.	.
16ryy	.	16F#X</JJ	.	.
16C\LL	.	16ryy	.	.
16ryy	.	16E-</LL	.	.
16D\JJ	.	16ryy	.	.
16ryy	.	16F#</JJ	.	.
*	*	*clefF4	*	*
=254	=254	=254	=254	=254
8EEL 8EEE^>/	.	(16C\LL	.	p
.	.	16A\	.	.
8EE 8EEE/	.	16D\	.	.
.	.	16E\JJ	.	.
8rGG	.	16C\LL	.	.
.	.	16A\	.	.
!	!	!	!	!LO:HP:t=poco a poco cresc.
8EEJ 8EEE/	.	16D\	.	<
.	.	16E\JJ	.	.
=255	=255	=255	=255	=255
8EEL 8EEE/	.	16C\LL	.	.
.	.	16A\	.	.
8EE 8EEE/	.	16D\	.	.
.	.	16E\JJ	.	.
8rGG	.	16C\LL	.	.
.	.	16A\	.	.
8EEJ 8EEE/	.	16D\	.	.
.	.	16E\JJ	.	.
=256	=256	=256	=256	=256
8EEL 8EEE/	.	16C\LL	.	.
.	.	16A\	.	.
8EE 8EEE/	.	16D\	.	.
.	.	16E\JJ	.	.
8rGG	.	16C\LL	.	.
.	.	16A\	.	.
8EEJ 8EEE/	.	16D\	.	.
.	.	16E\JJ	.	.
=257	=257	=257	=257	=257
8EEL 8EEE/	.	16C\LL	.	.
.	.	16A\	.	.
8EE 8EEE/	.	16D\	.	.
.	.	16E\JJ	.	.
8rGG	.	16C\LL	.	.
.	.	16A\	.	.
8EEJ 8EEE/	.	16D\	.	.
.	.	16E\JJ	.	.
=258	=258	=258	=258	=258
8EEL 8EEE/	.	16C\LL	.	.
.	.	16A\	.	.
8EE 8EEE/	.	16D\	.	.
.	.	16E\JJ	.	.
8rGG	.	16E\LL	.	.
.	.	16c\	.	.
8EEJ 8EEE/	.	16F\	.	.
.	.	16A\JJ	.	.
*	*	*clefG2	*	*
!!LO:PB:g=original
=259	=259	=259	=259	=259
8EEL 8EEE/	.	16G/LL	.	.
.	.	16e/	.	.
8EE 8EEE/	.	16A/	.	.
.	.	16c/JJ	.	.
8rGG	.	16B/LL	.	.
.	.	16g/	.	.
8EEJ 8EEE/	.	16c/	.	.
.	.	16e/JJ)	.	.
=260	=260	=260	=260	=260
8EEL 8EEE/	.	(16c/LL	.	.
.	.	16a/	.	.
8EE 8EEE/	.	16d/	.	<
.	.	16e/JJ	.	.
8rGG	.	16c/LL	.	.
.	.	16a/	.	.
8EEJ 8EEE/	.	16d/	.	.
.	.	16e/JJ	.	.
=261	=261	=261	=261	=261
8EEL 8EEE/	.	16c/LL	.	.
.	.	16a/	.	.
8EE 8EEE/	.	16d/	.	.
.	.	16e/JJ	.	.
8rGG	.	16c/LL	.	.
.	.	16a/	.	.
8EEJ 8EEE/	.	16d/	.	.
.	.	16e/JJ)	.	.
=262	=262	=262	=262	=262
8EEL 8EEE/	.	(16B/LL	.	.
.	.	16g/	.	.
8EE 8EEE/	.	16d/	.	.
.	.	16e/JJ	.	.
!!LO:TX:a:i:t=allarg.
8rGG	.	16B/LL	.	.
.	.	16g/	.	.
8EEJ 8EEE/	.	16d/	.	.
.	.	16e/JJ	.	.
=263	=263	=263	=263	=263
8EEL 8EEE/	.	16B/LL	.	.
.	.	16g/	.	.
8EE 8EEE/	.	16d/	.	.
.	.	16e/JJ	.	.
8rGG	.	16B/LL	.	[
.	.	16g/	.	.
8EEJ 8EEE/	.	16d/	.	.
.	.	16e/JJ)	.	.
=264	=264	=264	=264	=264
!!LO:TX:a:i:t=a tempo
!LO:TX:b:rj:i:t=con 8	!	!	!	!
8AAA 8AAAAyy/	.	(16c#X/LL	.	ff
.	.	16a/	.	.
4c#X 4C#X^\	.	16g#X/	.	.
.	.	16b/JJ	.	.
.	.	16e/LL	.	.
.	.	16cc#X/	.	.
[8B [8BB\	.	16b/	.	.
.	.	16dd/JJ	.	.
=265	=265	=265	=265	=265
8B]L 8BB\]	.	16a\LL	.	.
.	.	16dd\	.	.
8A 8AA\	.	16cc#X\	.	.
.	.	16ee\JJ	.	.
8G#X 8GG#X\	.	16cc#\LL	.	.
.	.	16ee\	.	.
8F#XJ 8FF#X\	.	16cc#\	.	.
.	.	16ee\JJ	.	.
!!LO:LB:g=original
=266	=266	=266	=266	=266
8E 8EE/	.	16dd\LL	.	.
.	.	16ee\	.	.
4B 4BB^\	.	16cc#X\	.	.
.	.	16ee\JJ	.	.
.	.	16b\LL	.	.
.	.	16ee\	.	.
8d 8D\	.	16g#X\	.	.
.	.	16ee\JJ	.	.
=267	=267	=267	=267	=267
8c#XL 8C#X\	.	16a\LL	.	.
.	.	16ee\	.	.
8BJ 8BB\	.	16b\	.	.
.	.	16ee\JJ	.	.
4A 4AA^\	.	16cc#X\LL	.	.
.	.	16ee\	.	.
.	.	16a\	.	.
.	.	16ee\JJ	.	.
=268	=268	=268	=268	=268
8E 8EE/	.	16dd\LL	.	.
.	.	16ee\	.	.
4B 4BB^\	.	16ccn\	.	.
.	.	16ee\JJ	.	.
.	.	16b\LL	.	.
.	.	16ee\	.	.
8d 8D\	.	16gn\	.	.
.	.	16ee\JJ	.	.
=269	=269	=269	=269	=269
8cnL 8Cn\	.	16a\LL	.	.
.	.	16ee\	.	.
8BJ 8BB\	.	16b\	.	.
.	.	16ee\JJ	.	.
4A 4AA^\	.	16cc\LL	.	.
.	.	16ee\	.	.
.	.	16a\	.	.
.	.	16ee\JJ	.	.
=270	=270	=270	=270	=270
8E 8EE/	.	16dd\LL	.	.
.	.	16ee\	.	.
4e 4E^\	.	16cc#X\	.	.
.	.	16ee\JJ	.	.
.	.	16b\LL	.	.
.	.	16ee\	.	.
8f#X 8F#X\	.	16dd\	.	.
.	.	16ee\JJ	.	.
=271	=271	=271	=271	=271
8eL 8E\	.	16cc#X\LL	.	.
.	.	16ee\	.	.
8d 8D\	.	16b\	.	.
.	.	16ee\JJ	.	.
8c#X 8C#X\	.	16cc#\LL	.	.
.	.	16ee\	.	.
8eJ 8E\	.	16a\	.	.
.	.	16ee\JJ	.	.
=272	=272	=272	=272	=272
8d 8D\	.	16b\LL	.	.
.	.	16ee\	.	.
4e 4E^\	.	16a\	.	.
.	.	16ee\JJ	.	.
.	.	16gn\LL	.	.
.	.	16ee\	.	.
8d 8D\	.	16b\	.	.
.	.	16ee\JJ	.	.
!!LO:LB:g=original
=273	=273	=273	=273	=273
!	!	!LO:TX:b:i:t=poco rit.	!	!
8cnL 8Cn\	.	4a/)	.	.
8BJ 8BB\	.	.	.	.
4A 4AA\	.	4r	.	.
=274	=274	=274	=274	=274
!	!	!LO:TX:b:i:t=a tempo	!	!
16BBLL 16BBB\	.	16rA<	.	.
!	!	!LO:TX:a:i:t=con strepito	!	!
16ryy	.	16eLL 16B< 16E</	.	.
16AA 16AAA\	.	16rA<	.	.
16ryy	.	16e 16A< 16E</	.	.
16GG#X 16GGG#X\	.	16rA<	.	.
16ryy	.	16e 16G#X< 16E</	.	.
16BBJJ 16BBB\	.	16rA<	.	.
16ryy	.	16eJJ 16B< 16E</	.	.
=275	=275	=275	=275	=275
16ELL 16EE\	.	16r	.	.
!	!	!	!	!LO:HP:a
16ryy	.	16aLL 16e 16A</	.	<
16D#X 16DD#X\	.	16rb	.	.
16ryy	.	16a 16d#X 16A</	.	.
16C#X 16CC#X\	.	16rb	.	.
16ryy	.	16a 16c#X 16A</	.	.
16EJJ 16EE\	.	16rb	.	.
16ryy	.	16aJJ 16e 16A</	.	.
=276	=276	=276	=276	=276
8BL 8BB\	.	16r	.	.
.	.	16eeLL 16b 16e/	.	.
8A 8AA\	.	16r	.	.
.	.	16ee 16a 16e/	.	.
8Gn 8GGn\	.	16r	.	.
.	.	16ee 16gn 16e/	.	.
8BJ 8BB\	.	16r	.	.
.	.	16eeJJ 16b 16e/	.	[[
=277	=277	=277	=277	=277
8eL 8E\	.	16r	.	.
.	.	16aaLL 16ee 16a\	.	.
8d#X 8D#X\	.	16r	.	.
.	.	16aa 16dd#X 16a\	.	.
8c#X 8C#X\	.	16r	.	.
.	.	16aa 16cc#X 16a\	.	.
8eJ 8E\	.	16r	.	.
.	.	16aaJJ 16ee 16a\	.	.
*clefG2	*	*	*	*
=278	=278	=278	=278	=278
8bL 8B/	.	16r	.	.
.	.	16eeeLL 16bb 16ee\	.	.
8a 8A/	.	16r	.	.
.	.	16eee 16aa 16ee\	.	.
8g 8G/	.	16r	.	.
.	.	16eee 16gg 16ee\	.	.
8bJ 8B/	.	16r	.	.
.	.	16eeeJJ 16bb 16ee\	.	.
=279	=279	=279	=279	=279
*	*	*8va	*	*
8eeL 8e/	.	16r	.	.
.	.	16aaaLL 16eee 16aa\	.	.
8dd#X 8d#X/	.	16r	.	.
.	.	16aaa 16ddd#X 16aa\	.	.
8cc#X 8c#X/	.	16r	.	.
.	.	16aaa 16ccc#X 16aa\	.	.
8eeJ 8e/	.	16r	.	.
.	.	16aaaJJ 16eee 16aa\	.	.
!!LO:LB:g=original
=280	=280	=280	=280	=280
8bbL 8b\	.	16r	.	.
.	.	16eeeeLL 16bbb 16eee\	.	.
8aa 8a\	.	16r	.	.
.	.	16eeee 16aaa 16eee\	.	.
8gg 8g\	.	16r	.	.
.	.	16eeee 16ggg 16eee\	.	.
8bbJ 8b\	.	16r	.	.
.	.	16eeeeJJ 16bbb 16eee\	.	.
=281	=281	=281	=281	=281
8bbL 8b\	.	16r	.	<
.	.	16eeeeLL 16bbb 16eee\	.	.
8aa 8a\	.	16r	.	.
.	.	16eeee 16aaa 16eee\	.	.
8gg 8g\	.	16r	.	.
.	.	16eeee 16ggg 16eee\	.	.
8bbJ 8b\	.	16r	.	.
.	.	16eeeeJJ 16bbb 16eee\	.	.
=282	=282	=282	=282	=282
8bbL 8b\	.	16r	.	.
.	.	16eeeeLL 16bbb 16eee\	.	.
8aa 8a\	.	16r	.	.
.	.	16eeee 16aaa 16eee\	.	.
8gg 8g\	.	16r	.	.
.	.	16eeee 16ggg 16eee\	.	.
8bbJ 8b\	.	16r	.	.
.	.	16eeeeJJ 16bbb 16eee\	.	[
=283	=283	=283	=283	=283
8bbL 8b\	.	16r	.	.
.	.	16eeeeLL 16bbb 16eee\	.	.
8aa 8a\	.	16r	.	.
.	.	16eeee 16aaa 16eee\	.	.
8gg 8g\	.	16r	.	.
.	.	16eeee 16ggg 16eee\	.	.
8bbJ 8b\	.	16r	.	.
.	.	16eeeeJJ 16bbb 16eee\	.	.
*clefF4	*	*	*	*
=284	=284	=284	=284	=284
*8ba	*	*	*	*
!!LO:TX:a:B:t=Maestoso.
!LO:N:vis=4	!	!LO:TX:b:i:t=tutta forza	!	!
!	!	!LO:N:vis=4	!	!
8EE 8BBB 8EEE/	.	8eeee 8bbb 8eee\	.	.
*X8ba	*	*	*	*
*Xtuplet	*	*	*	*
24eLL 24B 24E\	.	24eeeLL 24bb 24ee/	.	.
24e 24B 24E\	.	24eee 24bb 24ee/	.	.
24eJJ 24B 24E\	.	24eeeJJ 24bb 24ee/	.	.
8d#XL 8B 8D#X\	.	8ddd#XL 8bb 8dd#X/	.	.
8eJ 8B 8E\	.	8eeeJ 8bb 8ee/	.	.
*	*	*X8va	*	*
=285	=285	=285	=285	=285
8d#XL 8B 8D#X\	.	8ddd#XL 8bb 8dd#X\	.	.
8dnJ 8c 8Dn 8C\	.	8dddnJ 8ccc 8ddn 8cc\	.	.
8BL 8E 8BB/	.	4bb 4ee 4b\	.	.
8EJ 8BB 8EE/	.	.	.	.
!!LO:LB:g=original
=286	=286	=286	=286	=286
*8ba	*	*8va	*	*
!LO:N:vis=4	!	!LO:N:vis=4	!	!
8EE 8BBB 8EEE/	.	8eeee 8bbb 8eee\	.	.
*X8ba	*	*	*	*
*tuplet	*	*X8va	*	*
24ELL 24BB 24EE/	.	24eeLL 24b 24e/	.	.
24E 24BB 24EE/	.	24ee 24b 24e/	.	.
24EJJ 24BB 24EE/	.	24eeJJ 24b 24e/	.	.
8D#XL 8BB 8DD#X/	.	8dd#XL 8b 8d#X/	.	.
8EJ 8BB 8EE/	.	8eeJ 8b 8e/	.	.
=287	=287	=287	=287	=287
8D#XL 8BB 8DD#X/	.	8dd#XL 8b 8d#X/	.	.
8DnJ 8C 8DDn 8CC/	.	8ddnJ 8cc 8dn 8c/	.	.
8BBL 8EE 8BBB/	.	4b 4e 4B/	.	.
8EEJ 8BBB 8EEE/	.	.	.	.
*	*	*clefF4	*	*
=288	=288	=288	=288	=288
!!LO:TX:a:B:t=Tempo I
8AAA^>/L	.	16AA^>/LL	3	f
.	.	16BB 16GG#X/	2 4	.
8EE 8AAA/	.	16AA/	3	.
.	.	16AA/JJ	1	.
8rGG	.	16DLL 16BB/	2 4	>
.	.	16C/	3	.
8EEJ 8AAA/	.	16C/	1	.
.	.	16FnJJ 16D#X/	2 4	]]
=289	=289	=289	=289	=289
8EEL 8AAA/	.	16E\LL	2	p
.	.	16E\	1	.
8EE 8AAA/	.	16B 16G#X\	2 4	.
.	.	16A\JJ	3	.
8rGG	.	16A\LL	1	<
.	.	16dn 16B\	.	.
8EEJ 8AAA/	.	16c\	.	.
.	.	16c\JJ	.	.
*	*	*clefG2	*	*
=290	=290	=290	=290	=290
8EEL 8AAA/	.	16fnLL 16d#X/	.	.
.	.	16e/	.	.
8EE 8AAA/	.	16e/	.	.
.	.	16bJJ 16g#X/	.	.
8rGG	.	16a/LL	.	.
.	.	16a/	.	.
8EEJ 8AAA/	.	16ddn 16b/	.	.
.	.	16cc/JJ	.	.
=291	=291	=291	=291	=291
8EEL 8AAA/	.	16cc\LL	.	.
.	.	16ff 16dd#X\	.	.
8EE 8AAA/	.	16ee\	.	.
.	.	16ee\JJ	.	.
*	*	*8va	*	*
8rGG	.	16bbLL 16gg#X/	.	.
.	.	16aa/	.	.
8EEJ 8AAA/	.	16aa/	.	.
.	.	16dddnJJ 16bb/	.	.
!!LO:LB:g=original
=292	=292	=292	=292	=292
8EEL 8AAA/	.	16ccc\LL	.	.
.	.	16ccc\	.	.
8EE 8AAA/	.	16fff 16ddd#X\	.	.
.	.	16eee\JJ	.	.
8rGG	.	16eee\LL	.	.
.	.	16bbb 16ggg#X\	.	<
8EEJ 8AAA/	.	16aaa\	.	.
.	.	16aaa\JJ	.	.
=293	=293	=293	=293	=293
8EEL 8AAA/	.	16ddddnLL 16bbb\	.	.
.	.	16cccc\	.	.
8EE 8AAA/	.	16cccc\	.	.
.	.	16ffffJJ 16dddd#X\	.	.
8rGG	.	16eeee\LL	3	.
.	.	16eeee\	1	.
8EEJ 8AAA/	.	16ffff 16dddd#\	2 4	.
.	.	16eeee\JJ	3	.
=294	=294	=294	=294	=294
8EEL 8AAA/	.	16eeee\LL	1	.
.	.	16ffff 16dddd#X\	2 4	.
8EE 8AAA/	.	16eeee\	3	.
.	.	16eeee\JJ	1	.
8rGG	.	16ffffLL 16dddd#\	.	.
.	.	16eeee\	3	.
8EEJ 8AAA/	.	16eeee\	1	.
.	.	16ffffJJ 16dddd#\	.	[
=295	=295	=295	=295	=295
8EEL 8AAA/	.	16eeee\LL	.	.
.	.	16eeee\	.	.
8EE 8AAA/	.	16ffff 16dddd#X\	.	.
.	.	16dddd#\JJ	.	.
8rGG	.	16eeee\LL	.	.
.	.	16ffff 16dddd#\	.	.
8EEJ 8AAA/	.	16eeee\	.	.
.	.	16eeee\JJ	.	.
*	*	*X8va	*	*
=296	=296	=296	=296	=296
8EE 8AAA/	.	8aaa\	.	.
8r	.	8r	.	.
4r	.	4r	.	.
=297	=297	=297	=297	=297
!	!	!	!	!LO:DY:rj
4E 4BB 4EE/	.	4g 4d 4G/	.	fff
!!LO:TX:a:B:t=Maestoso.
4r	.	4r	.	.
=298	=298	=298	=298	=298
*^	*	*	*	*
!LO:TX:b:rj:i:t=con 8	!	!	!	!	!
8AAA 8AAAAyy/	4ryy	.	8r	.	.
4.e 4.c#X 4.A 4.E;\	.	.	4.aa 4.ee 4.cc#X 4.a;\	.	.
!	!	!	!LO:TX:b:i:t=m.g.	!	!
.	4aaa>;>/	.	.	.	.
*v	*v	*	*	*	*
==	==	==	==	==
*-	*-	*-	*-	*-
!!!system-decoration: {(g1)}
!!!RDF**kern: i = editorial accidental
!!!RDF**kern: > = above
!!!RDF**kern: < = below
!!!RDF**kern: N = linked
!!!RDF**dynam: > = "dim.", fontstyle= "italic"
!!!ENC: Filip Voros
!!!EED: Katarzyna Serwa
!!!END: 2023-10-18
!!!EEV: 2023-11-06
